!!!!SEGMENT: pl-stab--5a--001-010_dankowski-adalbert--vespere-ex-c-de-confessoribus-fecit-potentiam.krn
!!!cenid: 18xx:3508
!!!COM: Dankowski, Adalbert
!!!COM-rismID: pe30000793
!!!CDT: ~1760-~1836
!!!CNT: Polish
!!!OPR: Vespere ex C de Confessoribus
!!!OTL: Fecit potentiam
!!!OMV: 010
!!!PDT:
!!!AGN: Sacred; Vespers
!!!SMS-siglum: PL-STAb
!!!SMS-shelfmark: 5a
!!!SMS-shelfwork: 001-010 M
!!!SMS-variant:
!!!SMS-altvar:
!!!NIFC-rismSourceID: 301050557
!!!NIFC-islandoraID: pl-stab:1317
!!!URL-pdf-islandora: https://repozytorium.nifc.pl/islandora/object/pl-stab%3A1317/datastream/PDF/view
!!!URL-scan: https://polish.musicsources.pl/pl/lokalizacje/galeria/rekopisy/4531 @EN{Scan on Polish Music Sources Website} @PL{Skany w portalu Dziedzictwo Muzyki Polskiej w otwartym dostępie}
!!!ONB-nifc: UWAGA: części Nieszporów: 1. Domine ad adjuvandum, 2. Dixit Dominus, 3. Confitebor, 4. Beatus vir, 5. Laudate pueri, 6. Laudate Dominum, 7. In Exitu, 8. Magnificat, 9. Quia fecit, 10. Fecit potentiam, 11. Suscepit Israel, 12. Gloria patri
!!!AIN: 1 alto 1 bass 2 cor 1 organ 1 soprn 1 tenor 2 violn
!!!key: B-
**kern	**dynam	**fba	**kern	**dynam	**mod-dynam	**kern	**dynam	**kern	**kern	**text	**kern	**text	**kern	**kern	**kern
*group4	*	*	*group3	*	*	*group3	*	*group2	*group2	*	*group2	*	*group2	*group1	*group1
*part9	*part9	*	*part8	*	*part7	*part7	*part7	*part6	*part5	*part5	*part4	*part4	*part3	*part2	*part1
*staff9	*	*	*staff8	*	*	*staff7	*	*staff6	*staff5	*staff5	*staff4	*staff4	*staff3	*staff2	*staff1
*I"Organo	*	*	*I"Violino Secondo	*	*	*I"Violino Primo	*	*I"Baſso.	*I"Tenore.	*	*I"Alto	*	*I"Canto	*I"Corno Secondo Ex e.	*I"Corno Primo Ex e.
*	*	*	*mI"Violino II	*	*	*mI"Violino I	*	*mI"Basso	*mI"Tenore	*	*	*	*mI"Soprano	*mI"Corno II in e	*mI"Corno I in e
*I'[Org]	*	*	*I'[Vl 2]	*	*	*I'[Vl 1]	*	*I'[B]	*I'[T]	*	*I'[A]	*	*I'[S]	*I'[Cor 2 in E]	*I'[Cor 1 in E]
*mI'org	*	*	*mI'vl II	*	*	*mI'vl I	*	*mI'B	*mI'T	*	*mI'A	*	*mI'S	*	*
*Iorgan	*	*	*Ivioln	*	*	*Ivioln	*	*Ibass	*Itenor	*	*Ialto	*	*Isoprn	*Icor	*Icor
*ICklav	*	*	*ICstr	*	*	*ICstr	*	*ICvox	*ICvox	*	*ICvox	*	*ICvox	*ICbras	*ICbras
*IGcont	*	*	*IGacmp	*	*	*IGacmp	*	*IGcoro	*IGcoro	*	*IGcoro	*	*IGcoro	*IGacmp	*IGacmp
*clefF4	*	*	*clefG2	*	*	*clefG2	*	*clefF4	*clefC4	*	*clefC3	*	*clefC1	*clefG2	*clefG2
*	*	*	*	*	*	*	*	*	*mclefGv2	*	*mclefG2	*	*mclefG2	*	*
*	*	*	*	*	*	*	*	*	*	*	*	*	*	*ITrd5c9	*ITrd5c9
*k[b-e-]	*	*	*k[b-e-]	*	*	*k[b-e-]	*	*k[b-e-]	*k[b-e-]	*	*k[b-e-]	*	*k[b-e-]	*k[b-e-]	*k[b-e-]
*B-:	*	*	*B-:	*	*	*B-:	*	*B-:	*B-:	*	*B-:	*	*B-:	*B-:	*B-:
*M3/4	*	*	*M3/4	*	*	*M3/4	*	*M3/4	*M3/4	*	*M3/4	*	*M3/4	*M3/4	*M3/4
=1	=1	=1	=1	=1	=1	=1	=1	=1	=1	=1	=1	=1	=1	=1	=1
!!LO:TX:B:a:t=:mod=Tempo di gusto
!	!	!	!	!	!	!	!	!	!	!	!LO:TX:a:t=Tempo di gusto:mod=	!	!	!	!
!LO:TX:a:t=Solo	!	!	!LO:TX:a:t=Solo	!	!	!LO:MO:mod=!LO&colon;TX&colon;a&colon;t=Solo	!	!	!	!	!LO:TX:a:t=Solo.:mod=	!	!	!	!LO:TX:t=P:problem=2\right&colon; global
!LO:TX:a:t=Tempo di guſto.:mod=	!	!	!LO:TX:a:t=Tempo di guſto:mod=	!	!	!LO:TX:a:t=Tempo [d]i guſto:mod=	!	!LO:TX:a:t=Fecit Potentiam Tacet.	!LO:TX:b:t=Tempo di Gusto:mod=	!	!LO:TX:a:t=8:mod=	!	!LO:TX:a:t=Fecit Potentiam Tacet.	!LO:TX:a:t=Fecit Potentiam Tacet.	!LO:TX:a:t=Fecit Potentiam Tacet.
4B-\	.	.	8.dd\L	.	.	8.ff\L	.	2.ryy	0.r	.	0.r	.	2.ryy	2.ryy	2.ryy
.	.	.	16ee-\Jk	.	.	16gg\Jk	.	.	.	.	.	.	.	.	.
4B-\	.	.	8dd\L	.	.	8ff\L	.	.	.	.	.	.	.	.	.
.	.	.	8b-\	.	.	8dd\	.	.	.	.	.	.	.	.	.
4B-\	.	.	8dd\	.	.	8bb-\	.	.	.	.	.	.	.	.	.
.	.	.	8ff\J	.	.	8aa\J	.	.	.	.	.	.	.	.	.
=2	=2	=2	=2	=2	=2	=2	=2	=2	=2-	=2	=2-	=2	=2	=2	=2
4B-\	.	6 4	8.ee-\L	.	.	8.gg\L	.	2.ryy	.	.	.	.	2.ryy	2.ryy	2.ryy
.	.	.	32dd\LL	.	.	32ff\LL	.	.	.	.	.	.	.	.	.
.	.	.	32ee-\JJJ	.	.	32gg\JJJ	.	.	.	.	.	.	.	.	.
4BB-/	.	5 3	8dd\L	.	.	8ff\L	.	.	.	.	.	.	.	.	.
.	.	.	8b-\J	.	.	8dd\J	.	.	.	.	.	.	.	.	.
4r	.	.	16b-\LL	.	.	16dd\LL	.	.	.	.	.	.	.	.	.
.	.	.	16a\	.	.	16cc#X\	.	.	.	.	.	.	.	.	.
.	.	.	16b-\	.	.	16dd\	.	.	.	.	.	.	.	.	.
.	.	.	16cc\JJ	.	.	16ee-\JJ	.	.	.	.	.	.	.	.	.
=3	=3	=3	=3	=3	=3	=3	=3	=3	=3-	=3	=3-	=3	=3	=3	=3
4B-\	.	.	8.dd\L	.	.	8.ff\L	.	2.ryy	.	.	.	.	2.ryy	2.ryy	2.ryy
.	.	.	16ee-\Jk	.	.	16gg\Jk	.	.	.	.	.	.	.	.	.
4B-\	.	.	8dd\L	.	.	8ff\L	.	.	.	.	.	.	.	.	.
.	.	.	8b-\	.	.	8dd\J	.	.	.	.	.	.	.	.	.
4B-\	.	.	8dd\	.	.	16bb-\LL	.	.	.	.	.	.	.	.	.
.	.	.	.	.	.	16aa\	.	.	.	.	.	.	.	.	.
.	.	.	8dd\J	.	.	16gg\	.	.	.	.	.	.	.	.	.
.	.	.	.	.	.	16ff\JJ	.	.	.	.	.	.	.	.	.
=4	=4	=4	=4	=4	=4	=4	=4	=4	=4-	=4	=4-	=4	=4	=4	=4
4F\	.	7 x	8.cc\L	.	.	8.ee-\L	.	2.ryy	.	.	.	.	2.ryy	2.ryy	2.ryy
.	.	.	32b-\LL	.	.	32dd\LL	.	.	.	.	.	.	.	.	.
.	.	.	32cc\JJJ	.	.	32ee-\JJJ	.	.	.	.	.	.	.	.	.
4BB-/	.	.	8b-\L	.	.	8dd\L	.	.	.	.	.	.	.	.	.
.	.	.	16b-\L	.	.	16dd\L	.	.	.	.	.	.	.	.	.
.	.	.	16dd\JJ	.	.	16ff\JJ	.	.	.	.	.	.	.	.	.
!	!	!	!LO:LB:g=original	!	!	!	!	!	!	!	!	!	!	!	!
8r	.	.	16cc\LL	.	.	16ee-\LL	.	.	.	.	.	.	.	.	.
.	.	.	16b-\	.	.	16dd\	.	.	.	.	.	.	.	.	.
8BB-/	.	.	16a\	.	.	16cc\	.	.	.	.	.	.	.	.	.
.	.	.	16b-\JJ	.	.	16dd\JJ	.	.	.	.	.	.	.	.	.
!LO:LB:g=original	!	!	!	!	!	!	!	!	!	!	!	!	!	!	!
=5	=5	=5	=5	=5	=5	=5	=5	=5	=5-	=5	=5-	=5	=5	=5	=5
4F\	.	7 x	8.cc\L	.	.	8.ee-\L	.	2.ryy	0.r	.	0.r	.	2.ryy	2.ryy	2.ryy
.	.	.	16b-\Jk	.	.	16dd\Jk	.	.	.	.	.	.	.	.	.
4FF/	.	.	8a/L	.	.	8cc\L	.	.	.	.	.	.	.	.	.
.	.	.	16g#X/L	.	.	16bn\L	.	.	.	.	.	.	.	.	.
.	.	.	16a/JJ	.	.	16cc\JJ	.	.	.	.	.	.	.	.	.
!	!	!	!	!	!	!LO:LB:g=original	!	!	!	!	!	!	!	!	!
8r	.	.	16b-\LL	.	.	16cc#X\LL	.	.	.	.	.	.	.	.	.
.	.	.	16bn\	.	.	16dd\	.	.	.	.	.	.	.	.	.
8F\	.	.	16cc\	.	.	16ee-\	.	.	.	.	.	.	.	.	.
.	.	.	16cc#X\JJ	.	.	16een\JJ	.	.	.	.	.	.	.	.	.
=6	=6	=6	=6	=6	=6	=6	=6	=6	=6-	=6	=6-	=6	=6	=6	=6
4B-\	.	.	8.dd\L	.	.	8.ff\L	.	2.ryy	.	.	.	.	2.ryy	2.ryy	2.ryy
.	.	.	16ccn\Jk	.	.	16ee-X\Jk	.	.	.	.	.	.	.	.	.
4BB-/	.	.	8b-X\L	.	.	8dd\L	.	.	.	.	.	.	.	.	.
.	.	.	16b-\L	.	.	16dd\L	.	.	.	.	.	.	.	.	.
.	.	.	16cc\JJ	.	.	16ee-\JJ	.	.	.	.	.	.	.	.	.
8r	.	.	8dd\L	.	.	16ff\LL	.	.	.	.	.	.	.	.	.
.	.	.	.	.	.	16gg\	.	.	.	.	.	.	.	.	.
8B-\	.	.	8dd\J	.	.	16aa\	.	.	.	.	.	.	.	.	.
.	.	.	.	.	.	16bb-\JJ	.	.	.	.	.	.	.	.	.
=7	=7	=7	=7	=7	=7	=7	=7	=7	=7-	=7	=7-	=7	=7	=7	=7
!	!	!	!	!	!	!	!	!	!	!	!	!	!	!	!
!LO:TX:t=P:problem=mixed beam	!	!	!	!	!	!	!	!	!	!	!	!	!	!	!
!	!	!	!	!	!	!	!	!	!	!	!	!	!	!	!
.	.	.	.	.	.	8qqaa/	.	.	.	.	.	.	.	.	.
8E-\L	.	6 x	8ee-\L	.	.	8gg\L	.	2.ryy	.	.	.	.	2.ryy	2.ryy	2.ryy
8E-\	.	.	16dd\L	.	.	16ff\L	.	.	.	.	.	.	.	.	.
.	.	.	16cc\JJ	.	.	16ee-\JJ	.	.	.	.	.	.	.	.	.
8F\	.	6 4	4b-\	.	.	4dd\	.	.	.	.	.	.	.	.	.
8F\	.	.	.	.	.	.	.	.	.	.	.	.	.	.	.
8FF/	.	5 3	4a\	.	.	4cc\	.	.	.	.	.	.	.	.	.
8FF/J	.	.	.	.	.	.	.	.	.	.	.	.	.	.	.
=8	=8	=8	=8	=8	=8	=8	=8	=8	=8-	=8	=8-	=8	=8	=8	=8
!	!	!	!	!	!	!	!	!	!	!	!	!	!	!	!
!LO:TX:t=P:problem=mixed beam	!	!	!	!	!	!LO:N:vis=8	!	!	!	!	!	!	!	!	!
8BB-/L	.	.	8.cc\L	.	.	8.ee-\L	.	2.ryy	.	.	.	.	2.ryy	2.ryy	2.ryy
8B-\J	.	.	.	.	.	.	.	.	.	.	.	.	.	.	.
.	.	.	32dd\LL	.	.	32ff\LL	.	.	.	.	.	.	.	.	.
.	.	.	32cc\JJJ	.	.	32ee-\JJJ	.	.	.	.	.	.	.	.	.
4BB-/	.	.	8b-\	.	.	8dd\	.	.	.	.	.	.	.	.	.
.	.	.	8r	.	.	8r	.	.	.	.	.	.	.	.	.
4r	.	.	4r	.	.	4r	.	.	.	.	.	.	.	.	.
=9	=9	=9	=9	=9	=9	=9	=9	=9	=9	=9	=9	=9	=9	=9	=9
!	!	!	!	!	!	!	!LO:MO:null:mod=!LO&colon;DY&colon;ed=brack	!	!	!	!LO:MO:null:mod=!LO&colon;TX&colon;a&colon;i&colon;rj&colon;t=Solo	!	!	!	!
!	!LO:MO:mod=!	!	!	!	!LO:MO:null:mod=!LO&colon;DY&colon;ed=brack	!	!	!	!	!	!	!	!	!	!
!	!LO:DY:a:rj:t=pia	!	!	!	!	!	!LO:MO:null:mod=p	!	!LO:TX:a:i:t=Solo.:rj	!LO:MO:mod=Fe-	!	!	!	!	!
4B-\	p	.	8.dd\L	.	p	8.ff\L	.	2.ryy	8.d\L	e-	8.f\L	Fe-	2.ryy	2.ryy	2.ryy
.	.	.	16ee-\Jk	.	.	16gg\Jk	.	.	16e-\Jk	.	16g\Jk	.	.	.	.
4B-\	.	.	8dd\L	.	.	8ff\L	.	.	8d\L	.	8f\L	.	.	.	.
.	.	.	8b-\	.	.	8dd\	.	.	8B-\J	.	8d\J	.	.	.	.
4B-\	.	.	8dd\	.	.	8bb-\	.	.	8d\	cit	8b-\	-cit	.	.	.
.	.	.	8ff\J	.	.	8aa\J	.	.	8f\	po-	8a\	po-	.	.	.
=10	=10	=10	=10	=10	=10	=10	=10	=10	=10	=10	=10	=10	=10	=10	=10
4B-\	.	6 4	8.ee-\L	.	.	8.gg\L	.	2.ryy	8.e-\	-ten-	8.g\	-ten-	2.ryy	2.ryy	2.ryy
.	.	.	32dd\LL	.	.	32ff\LL	.	.	32d\LLL	-ti-	32f\LLL	-ti-	.	.	.
.	.	.	32ee-\JJJ	.	.	32gg\JJJ	.	.	32e-\JJJ	.	32g\JJJ	.	.	.	.
4BB-/	.	5 3	8dd\L	.	.	8ff\L	.	.	4d\	-am	4f\	-am	.	.	.
.	.	.	8b-\J	.	.	8dd\J	.	.	.	.	.	.	.	.	.
4r	.	.	16b-\LL	.	.	16dd\LL	.	.	4r	.	4r	.	.	.	.
.	.	.	16a\	.	.	16cc#X\	.	.	.	.	.	.	.	.	.
.	.	.	16b-\	.	.	16dd\	.	.	.	.	.	.	.	.	.
.	.	.	16cc\JJ	.	.	16ee-\JJ	.	.	.	.	.	.	.	.	.
!	!	!	!LO:LB:g=original	!	!	!LO:PB:g=original	!	!	!	!	!	!	!	!	!
=11	=11	=11	=11	=11	=11	=11	=11	=11	=11	=11	=11	=11	=11	=11	=11
!	!	!	!	!	!	!	!	!	!	!	!	!LO:MO:mod=Fe-	!	!	!
4B-\	.	.	8.dd\L	.	.	8.ff\L	.	2.ryy	8.d\L	Fe-	8.f\L	fe-	2.ryy	2.ryy	2.ryy
.	.	.	16ee-\Jk	.	.	16gg\Jk	.	.	16e-\Jk	.	16g\Jk	.	.	.	.
4B-\	.	.	8dd\L	.	.	8ff\L	.	.	8d\L	.	8f\L	.	.	.	.
.	.	.	8b-\	.	.	8dd\J	.	.	8B-\J	.	8d\J	.	.	.	.
!	!	!	!	!	!	!	!	!	!LO:LB:g=original	!	!	!	!	!	!
4B-\	.	.	8dd\	.	.	16bb-\LL	.	.	8d\	-cit	16b-\LL	-cit	.	.	.
.	.	.	.	.	.	16aa\	.	.	.	.	16a\JJ	.	.	.	.
.	.	.	8dd\J	.	.	16gg\	.	.	8d\	po-	16g\LL	po-	.	.	.
.	.	.	.	.	.	16ff\JJ	.	.	.	.	16f\JJ	.	.	.	.
!	!	!	!	!	!	!	!	!	!	!	!LO:LB:g=original	!	!	!	!
=12	=12	=12	=12	=12	=12	=12	=12	=12	=12	=12	=12	=12	=12	=12	=12
4F\	.	x 4	8.cc\L	.	.	8.ee-\L	.	2.ryy	8.c\	-ten-	8.e-\	-ten-	2.ryy	2.ryy	2.ryy
!	!	!	!	!	!	!	!	!	!	!	!LO:N:vis=16	!LO:MO:mod=-ti	!	!	!
.	.	.	32b-\LL	.	.	32dd\LL	.	.	32B-\LLL	-ti-	32d\LLL	-ci-	.	.	.
!	!	!	!	!	!	!	!	!	!	!	!LO:N:vis=16	!	!	!	!
.	.	.	32cc\JJJ	.	.	32ee-\JJJ	.	.	32c\JJJ	.	32e-\JJJ	.	.	.	.
4BB-/	.	.	8b-\L	.	.	8dd\L	.	.	4B-\	-am	4d\	-am	.	.	.
.	.	.	16b-\L	.	.	16dd\L	.	.	.	.	.	.	.	.	.
.	.	.	16dd\JJ	.	.	16ff\JJ	.	.	.	.	.	.	.	.	.
8r	.	.	16cc\LL	.	.	16ee-\LL	.	.	8r	.	8r	.	.	.	.
.	.	.	16b-\	.	.	16dd\	.	.	.	.	.	.	.	.	.
8BB-/	.	.	16a\	.	.	16cc\	.	.	8B-\	in	8d\	in	.	.	.
.	.	.	16b-\JJ	.	.	16dd\JJ	.	.	.	.	.	.	.	.	.
!LO:LB:g=original	!	!	!	!	!	!	!	!	!	!	!	!	!	!	!
=13	=13	=13	=13	=13	=13	=13	=13	=13	=13	=13	=13	=13	=13	=13	=13
4F\	.	7 x	8.cc\L	.	.	8.ee-\L	.	2.ryy	8.c\	bra-	8.e-\	bra-	2.ryy	2.ryy	2.ryy
.	.	.	16b-\Jk	.	.	16dd\Jk	.	.	16B-\	-chi-	16d\	-hi-	.	.	.
4FF/	.	.	8a/L	.	.	8cc\L	.	.	4A\	-o	4c\	-o	.	.	.
.	.	.	16g#X/L	.	.	16bn\L	.	.	.	.	.	.	.	.	.
.	.	.	16a/JJ	.	.	16cc\JJ	.	.	.	.	.	.	.	.	.
8r	.	.	16b-\LL	.	.	16cc#X\LL	.	.	8r	.	8r	.	.	.	.
.	.	.	16bn\	.	.	16dd\	.	.	.	.	.	.	.	.	.
*	*	*	*	*	*	*	*	*	*	*ij	*	*ij	*	*	*
8F\	.	.	16cc\	.	.	16ee-\	.	.	8A\	in	8c\	in	.	.	.
.	.	.	16cc#X\JJ	.	.	16een\JJ	.	.	.	.	.	.	.	.	.
=14	=14	=14	=14	=14	=14	=14	=14	=14	=14	=14	=14	=14	=14	=14	=14
4B-\	.	.	8.dd\L	.	.	8.ff\L	.	2.ryy	8.d\	bra-	8.f\	bra-	2.ryy	2.ryy	2.ryy
.	.	.	16ccn\Jk	.	.	16ee-X\Jk	.	.	16c\	-chi-	16e-\	-chi-	.	.	.
4BB-/	.	.	8b-X\L	.	.	8dd\L	.	.	4B-\	-o	4d\	-o	.	.	.
.	.	.	16b-\L	.	.	16dd\L	.	.	.	.	.	.	.	.	.
.	.	.	16cc\JJ	.	.	16ee-\JJ	.	.	.	.	.	.	.	.	.
8r	.	.	8dd\L	.	.	16ff\LL	.	.	8r	.	8r	.	.	.	.
.	.	.	.	.	.	16gg\	.	.	.	.	.	.	.	.	.
8B-\	.	.	8dd\J	.	.	16aa\	.	.	8d\	in	8b-\	in	.	.	.
.	.	.	.	.	.	16bb-\JJ	.	.	.	.	.	.	.	.	.
=15	=15	=15	=15	=15	=15	=15	=15	=15	=15	=15	=15	=15	=15	=15	=15
8E-\L	.	6: x	16ee-\LL	.	.	16gg\LL	.	2.ryy	16e-\LL	bra-	16g\LL	bra-	2.ryy	2.ryy	2.ryy
.	.	.	16dd\	.	.	16ff\	.	.	16d\	.	16f\	.	.	.	.
8E-\	.	.	16cc#X\	.	.	16een\	.	.	16c#X\	.	16en\	.	.	.	.
.	.	.	16dd\JJ	.	.	16ff\JJ	.	.	16d\JJ	.	16f\JJ	.	.	.	.
8E-\	.	.	4ccn\	.	.	4ee-X\	.	.	4cn\	-chi-	4e-X\	-chi-	.	.	.
8E-\	.	5 x	.	.	.	.	.	.	.	.	.	.	.	.	.
8En\	.	.	4b-\	.	.	4dd\	.	.	4B-\	-o	4d\	-o	.	.	.
*	*	*	*	*	*	*	*	*	*	*Xij	*	*Xij	*	*	*
8E\J	.	.	.	.	.	.	.	.	.	.	.	.	.	.	.
!	!	!	!	!	!	!LO:LB:g=original	!	!	!LO:LB:g=original	!	!LO:LB:g=original	!	!	!	!
=16	=16	=16	=16	=16	=16	=16	=16	=16	=16	=16	=16	=16	=16	=16	=16
8F\L	.	6: 4:	8.b-\L	.	.	8.dd\L	.	2.ryy	8.B-\L	ſu-	8.d\L	ſu-	2.ryy	2.ryy	2.ryy
16F\L	.	.	.	.	.	.	.	.	.	.	.	.	.	.	.
16En\JJ	.	.	32a\LL	.	.	32cc\LL	.	.	32A\LL	.	32c\LL	.	.	.	.
.	.	.	32b-\JJJ	.	.	32dd\JJJ	.	.	32B-\JJJ	.	32d\JJJ	.	.	.	.
8F/L	.	5 3	4a/	.	.	4cc\	.	.	4A\	-o	4c\	-o	.	.	.
8C/	.	.	.	.	.	.	.	.	.	.	.	.	.	.	.
8AA/	.	.	4r	.	.	4r	.	.	8r	.	8r	.	.	.	.
8FF/J	.	.	.	.	.	.	.	.	8A\	diſ-	8cc\	diſ-	.	.	.
!	!	!	!LO:LB:g=original	!	!	!	!	!	!	!	!	!	!	!	!
=17	=17	=17	=17	=17	=17	=17	=17	=17	=17	=17	=17	=17	=17	=17	=17
8r	.	.	8r	.	.	8r	.	2.ryy	4A\	-per-	16dd\LL	-per-	2.ryy	2.ryy	2.ryy
.	.	.	.	.	.	.	.	.	.	.	16cc\	.	.	.	.
8F\L	.	.	8a/L	.	.	8ff\L	.	.	.	.	16a\	.	.	.	.
.	.	.	.	.	.	.	.	.	.	.	16f\JJ	.	.	.	.
8F\	.	.	8a/	.	.	8ff\	.	.	4A\	-ſit	4c\	-sit	.	.	.
8F\	.	.	8a/	.	.	8ff\	.	.	.	.	.	.	.	.	.
8F\	.	.	8a/	.	.	8ff\	.	.	8r	.	8r	.	.	.	.
8F\J	.	.	8a/J	.	.	8ff\J	.	.	8A\	ſu-	8f\	ſu-	.	.	.
=18	=18	=18	=18	=18	=18	=18	=18	=18	=18	=18	=18	=18	=18	=18	=18
8r	.	.	8r	.	.	8r	.	2.ryy	8A\L	-per-	8f\L	-per-	2.ryy	2.ryy	2.ryy
*	*	*	*2\right	*	*	*2\right	*	*	*	*	*	*	*	*	*
*	*	*	*tremolo	*	*	*tremolo	*	*	*	*	*	*	*	*	*
8G\L	.	6: 5:	8b-\L	.	.	8een\L	.	.	8B-\J	.	8en\J	.	.	.	.
8G\	.	.	8b-\	.	.	8ee\	.	.	4B-\	-bos	4e\	-bos	.	.	.
8G\	.	.	8b-\	.	.	8ee\	.	.	.	.	.	.	.	.	.
8G\	.	.	8b-\	.	.	8ee\	.	.	8r	.	8r	.	.	.	.
*	*	*	*	*	*	*	*	*	*	*ij	*	*	*	*	*
8G\J	.	.	8b-\J	.	.	8ee\J	.	.	8B-\	su-	8e\	diſ-	.	.	.
=19	=19	=19	=19	=19	=19	=19	=19	=19	=19	=19	=19	=19	=19	=19	=19
8r	.	.	8r	.	.	8r	.	2.ryy	4G/	-per-	16cc\LL	-per-	2.ryy	2.ryy	2.ryy
.	.	.	.	.	.	.	.	.	.	.	16b-\	.	.	.	.
8En\L	.	6: 5:	8b-\L	.	.	8gg\L	.	.	.	.	16g\	.	.	.	.
.	.	.	.	.	.	.	.	.	.	.	16en\JJ	.	.	.	.
8E\	.	.	8b-\	.	.	8gg\	.	.	4G/	-bos	4c\	-ſit	.	.	.
*	*	*	*	*	*	*	*	*	*	*Xij	*	*	*	*	*
!LO:LB:g=original	!	!	!	!	!	!	!	!	!	!	!	!	!	!	!
8E\J	.	.	8b-\	.	.	8gg\	.	.	.	.	.	.	.	.	.
8E\L	.	.	8b-\	.	.	8gg\	.	.	8r	.	8r	.	.	.	.
*	*	*	*	*	*	*	*	*	*	*ij	*	*	*	*	*
8E\J	.	.	8b-\J	.	.	8gg\J	.	.	8G/	su-	8e\	ſu-	.	.	.
!	!	!	!	!	!	!	!	!	!	!	!LO:LB:g=original	!	!	!	!
=20	=20	=20	=20	=20	=20	=20	=20	=20	=20	=20	=20	=20	=20	=20	=20
8r	.	.	8r	.	.	8r	.	2.ryy	8B-\L	-per-	8g\L	-per-	2.ryy	2.ryy	2.ryy
8F\L	.	.	8a/L	.	.	8ff\L	.	.	8A\J	.	8f\J	.	.	.	.
8F\	.	.	8a/	.	.	8ff\	.	.	4A\	-bos	4f\	-bos	.	.	.
*	*	*	*	*	*	*	*	*	*	*Xij	*	*	*	*	*
8F\	.	.	8a/	.	.	8ff\	.	.	.	.	.	.	.	.	.
8F\	.	.	8a/	.	.	8ff\	.	.	8r	.	8r	.	.	.	.
8F\J	.	.	8a/J	.	.	8ff\J	.	.	8f\	men-	8a\	men-	.	.	.
*	*	*	*Xtremolo	*	*	*	*	*	*	*	*	*	*	*	*
!	!	!	!	!	!	!	!	!	!LO:LB:g=original	!	!	!	!	!	!
=21	=21	=21	=21	=21	=21	=21	=21	=21	=21	=21	=21	=21	=21	=21	=21
*	*	*	*	*	*	*2\right	*	*	*	*	*	*	*	*	*
8B-\L	.	6: x	8dd\L	.	.	8gg\L	.	2.ryy	16g\LL	.	16b-\LL	.	2.ryy	2.ryy	2.ryy
.	.	.	.	.	.	.	.	.	16f\	.	16a\	.	.	.	.
8B-\	.	.	8dd\	.	.	8gg\	.	.	16g\	.	16b-\	.	.	.	.
.	.	.	.	.	.	.	.	.	16f\JJ	.	16a\JJ	.	.	.	.
8B-\	.	.	8dd\	.	.	8gg\	.	.	16g\LL	.	16b-\LL	.	.	.	.
.	.	.	.	.	.	.	.	.	16a\	.	16cc\	.	.	.	.
8B-\	.	.	8dd\	.	.	8gg\	.	.	16b-\	.	16dd\	.	.	.	.
.	.	.	.	.	.	.	.	.	16g\JJ	.	16b-\JJ	.	.	.	.
8c\	.	n x	8een\	.	.	8gg\	.	.	16en\LL	.	16g\LL	.	.	.	.
.	.	.	.	.	.	.	.	.	16f\JJ	.	16a\JJ	.	.	.	.
8c\J	.	.	8ee\J	.	.	8gg\J	.	.	16g\LL	-te	16b-\LL	-te	.	.	.
.	.	.	.	.	.	.	.	.	16e\JJ	.	16g\JJ	.	.	.	.
=22	=22	=22	=22	=22	=22	=22	=22	=22	=22	=22	=22	=22	=22	=22	=22
8F\L	.	.	8ff\	.	.	8aa\L	.	2.ryy	16f\LL	Cor-	16a\LL	Cor-	2.ryy	2.ryy	2.ryy
.	.	.	.	.	.	.	.	.	16en\	.	16g\	.	.	.	.
*	*	*	*tremolo	*	*	*	*	*	*	*	*	*	*	*	*
8F\	.	.	8cc\L	.	.	8aa\	.	.	16f\	.	16a\	.	.	.	.
.	.	.	.	.	.	.	.	.	16e\JJ	.	16g\JJ	.	.	.	.
8F\	.	.	8cc\	.	.	8aa\	.	.	16f\LL	.	16a\LL	.	.	.	.
.	.	.	.	.	.	.	.	.	16e\	.	16g\	.	.	.	.
8F\J	.	.	8cc\	.	.	8aa\	.	.	16f\	.	16a\	.	.	.	.
.	.	.	.	.	.	.	.	.	16g\JJ	.	16b-\JJ	.	.	.	.
8F\L	.	.	8cc\	.	.	8aa\	.	.	8a\	-diſ	8cc\	-diſ	.	.	.
16G\L	.	.	8cc\J	.	.	8aa\J	.	.	8r	.	8r	.	.	.	.
16A\JJ	.	.	.	.	.	.	.	.	.	.	.	.	.	.	.
*	*	*	*	*	*	*Xtremolo	*	*	*	*	*	*	*	*	*
!	!	!	!	!	!	!	!	!	!	!	!LO:LB:g=original	!	!	!	!
=23	=23	=23	=23	=23	=23	=23	=23	=23	=23	=23	=23	=23	=23	=23	=23
8B-\L	.	6: x	8dd\L	.	.	8gg\L	.	2.ryy	16a\LL	men-	16cc\LL	men-	2.ryy	2.ryy	2.ryy
.	.	.	.	.	.	.	.	.	16g\JJ	.	16b-\JJ	.	.	.	.
8B-\	.	.	8dd\	.	.	8gg\	.	.	16f\LL	-te	16a\LL	-te	.	.	.
.	.	.	.	.	.	.	.	.	16g\JJ	.	16b-\JJ	.	.	.	.
8B-\	.	.	8dd\	.	.	8gg\	.	.	16f\LL	Cor-	16a\LL	Cor-	.	.	.
.	.	.	.	.	.	.	.	.	16g\	.	16b-\	.	.	.	.
8B-\	.	.	8dd\	.	.	8gg\J	.	.	16a\	.	16cc\	.	.	.	.
.	.	.	.	.	.	.	.	.	16g\JJ	.	16b-\JJ	.	.	.	.
!	!	!	!	!	!	!	!	!	!LO:LB:g=original	!	!	!	!	!	!
8Bn\	.	5 x	8dd\	.	.	8ff\L	.	.	16b-\LL	.	16dd\LL	.	.	.	.
.	.	.	.	.	.	.	.	.	16a\JJ	.	16cc\JJ	.	.	.	.
8B\J	.	.	8dd\J	.	.	8ff\J	.	.	16g\LL	-diſ	16b-\LL	-dis	.	.	.
.	.	.	.	.	.	.	.	.	16f\JJ	.	16a\JJ	.	.	.	.
*	*	*	*Xtremolo	*	*	*	*	*	*	*	*	*	*	*	*
=24	=24	=24	=24	=24	=24	=24	=24	=24	=24	=24	=24	=24	=24	=24	=24
!	!	!	!	!	!	!	!	!	!	!	!	!	!	!	!
!LO:TX:t=P:problem=mixed beam	!	!	!	!	!	!	!	!	!	!	!	!	!	!	!
8c\L	.	6 4	8.a/L	.	.	8.ff\L	.	2.ryy	8.f\L	ſu-	8.a\L	ſu-	2.ryy	2.ryy	2.ryy
8c\	.	n5r x	.	.	.	.	.	.	.	.	.	.	.	.	.
!	!	!	!	!	!	!LO:SIC:s=32een	!	!	!	!	!	!	!	!	!
.	.	.	32g/LL	.	.	32ee-\LL	.	.	32en\LL	.	32g\LL	.	.	.	.
.	.	.	32a/JJJ	.	.	32ff\JJJ	.	.	32f\JJJ	.	32a\JJJ	.	.	.	.
!	!	!	!	!	!	!LO:SIC:s=4ee	!	!	!	!	!	!	!	!	!
8C/	.	.	4g/	.	.	4ee-\	.	.	4e\	-i	4g\	-i	.	.	.
8C/J	.	.	.	.	.	.	.	.	.	.	.	.	.	.	.
16c\LL	.	.	4r	.	.	4r	.	.	4r	.	4r	.	.	.	.
16B-X\	.	.	.	.	.	.	.	.	.	.	.	.	.	.	.
16A\	.	.	.	.	.	.	.	.	.	.	.	.	.	.	.
16G\JJ	.	.	.	.	.	.	.	.	.	.	.	.	.	.	.
!LO:LB:g=original	!	!	!	!	!	!LO:LB:g=original	!	!	!	!	!	!	!	!	!
=25	=25	=25	=25	=25	=25	=25	=25	=25	=25	=25	=25	=25	=25	=25	=25
*	*	*	*	*	*	*tremolo	*	*	*	*	*2\right	*	*	*	*
4F\	.	.	8f/L	.	.	8a/L	.	2.ryy	2.r	.	2a\	Dis-	2.ryy	2.ryy	2.ryy
.	.	.	8a/	.	.	8cc/	.	.	.	.	.	.	.	.	.
4F\	.	.	8f/	.	.	8a/	.	.	.	.	.	.	.	.	.
.	.	.	8a/	.	.	8cc/	.	.	.	.	.	.	.	.	.
4r	.	.	8f/	.	.	8a/	.	.	.	.	16b-\LL	-per-	.	.	.
.	.	.	.	.	.	.	.	.	.	.	16a\	.	.	.	.
.	.	.	8a/J	.	.	8cc/J	.	.	.	.	16g\	.	.	.	.
.	.	.	.	.	.	.	.	.	.	.	16f\JJ	.	.	.	.
!	!	!	!LO:LB:g=original	!	!	!	!	!	!	!	!	!	!	!	!
=26	=26	=26	=26	=26	=26	=26	=26	=26	=26	=26	=26	=26	=26	=26	=26
*	*	*	*tremolo	*	*	*	*	*	*2\right	*	*	*	*	*	*
4C/	.	.	8en/L	.	.	8g/L	.	2.ryy	2g\	ſu-	8f\L	.	2.ryy	2.ryy	2.ryy
.	.	.	8g/	.	.	8b-/	.	.	.	.	8en\J	.	.	.	.
4C/	.	.	8e/	.	.	8g/	.	.	.	.	4e\	-sit	.	.	.
.	.	.	8g/	.	.	8b-/	.	.	.	.	.	.	.	.	.
4r	.	.	8e/	.	.	8g/	.	.	16b-\LL	-per-	4r	.	.	.	.
.	.	.	.	.	.	.	.	.	16g\JJ	.	.	.	.	.	.
.	.	.	8g/J	.	.	8b-/J	.	.	16f\LL	-bos	.	.	.	.	.
.	.	.	.	.	.	.	.	.	16en\JJ	.	.	.	.	.	.
!	!	!	!	!	!	!	!	!	!	!	!LO:LB:g=original	!	!	!	!
=27	=27	=27	=27	=27	=27	=27	=27	=27	=27	=27	=27	=27	=27	=27	=27
4F\	.	.	8f/L	.	.	8a/L	.	2.ryy	8g\L	men-	2a\	Diſ-	2.ryy	2.ryy	2.ryy
.	.	.	8a/	.	.	8cc/	.	.	8f\J	.	.	.	.	.	.
4F\	.	.	8f/	.	.	8a/	.	.	4f\	-te	.	.	.	.	.
.	.	.	8a/	.	.	8cc/	.	.	.	.	.	.	.	.	.
4r	.	.	8f/	.	.	8a/	.	.	4r	.	16b-\LL	-per-	.	.	.
.	.	.	.	.	.	.	.	.	.	.	16a\	.	.	.	.
.	.	.	8a/J	.	.	8cc/J	.	.	.	.	16g\	.	.	.	.
.	.	.	.	.	.	.	.	.	.	.	16f\JJ	.	.	.	.
!	!	!	!	!	!	!	!	!	!LO:LB:g=original	!	!	!	!	!	!
=28	=28	=28	=28	=28	=28	=28	=28	=28	=28	=28	=28	=28	=28	=28	=28
4C/	.	.	8en/L	.	.	8g/L	.	2.ryy	2g\	ſu-	8f\L	.	2.ryy	2.ryy	2.ryy
.	.	.	8g/	.	.	8b-/	.	.	.	.	8en\J	.	.	.	.
4C/	.	.	8e/	.	.	8g/	.	.	.	.	4e\	-ſit	.	.	.
.	.	.	8g/	.	.	8b-/	.	.	.	.	.	.	.	.	.
4r	.	.	8e/	.	.	8g/	.	.	16b-\LL	-per-	4r	.	.	.	.
.	.	.	.	.	.	.	.	.	16g\JJ	.	.	.	.	.	.
.	.	.	8g/J	.	.	8b-/J	.	.	16f\LL	-bos	.	.	.	.	.
.	.	.	.	.	.	.	.	.	16en\JJ	.	.	.	.	.	.
*	*	*	*	*	*	*Xtremolo	*	*	*	*	*	*	*	*	*
=29	=29	=29	=29	=29	=29	=29	=29	=29	=29	=29	=29	=29	=29	=29	=29
4F\	.	.	8f/L	.	.	8a/L	.	2.ryy	8g\L	men-	2a\	men-	2.ryy	2.ryy	2.ryy
.	.	.	8a/	.	.	8cc/	.	.	8f\J	.	.	.	.	.	.
4F\	.	.	8f/	.	.	8a/	.	.	4.f\	-te	.	.	.	.	.
.	.	.	8a/	.	.	8cc/	.	.	.	.	.	.	.	.	.
4F\	.	.	8f/	.	.	8a/	.	.	.	.	4cc\	-te	.	.	.
.	.	.	8a/J	.	.	8cc/J	.	.	8e-X\	Cor-	.	.	.	.	.
*	*	*	*Xtremolo	*	*	*	*	*	*	*	*	*	*	*	*
=30	=30	=30	=30	=30	=30	=30	=30	=30	=30	=30	=30	=30	=30	=30	=30
4B-\	.	.	8f/L	.	.	8dd\L	.	2.ryy	4.d\	.	4.b-\	Cor-	2.ryy	2.ryy	2.ryy
.	.	.	8d/J	.	.	8ff\J	.	.	.	.	.	.	.	.	.
4B-\	.	.	4f/	.	.	4dd\	.	.	.	.	.	.	.	.	.
*	*	*	*	*	*	*	*	*	*Xtuplet	*	*Xtuplet	*	*	*	*
.	.	.	.	.	.	.	.	.	24en\LL	.	24cc\LL	.	.	.	.
.	.	.	.	.	.	.	.	.	24f\	.	24dd\	.	.	.	.
.	.	.	.	.	.	.	.	.	24e\JJ	.	24cc\JJ	.	.	.	.
4r	.	.	4r	.	.	4r	.	.	8f\L	.	8dd\L	.	.	.	.
.	.	.	.	.	.	.	.	.	16e\L	.	16cc\L	.	.	.	.
.	.	.	.	.	.	.	.	.	16d\JJ	.	16b-\JJ	.	.	.	.
=31	=31	=31	=31	=31	=31	=31	=31	=31	=31	=31	=31	=31	=31	=31	=31
4c\	.	6 x	4en/	.	.	8.cc\L	.	2.ryy	8.c\L	.	8.a\L	.	2.ryy	2.ryy	2.ryy
.	.	.	.	.	.	16dd\Jk	.	.	16d\Jk	.	16b-\Jk	.	.	.	.
4c#X\	.	5 x	4e/	.	.	16cc\LL	.	.	16c\LL	.	16a\LL	.	.	.	.
.	.	.	.	.	.	16b-\	.	.	16B-\	.	16g\	.	.	.	.
.	.	.	.	.	.	16a\	.	.	16A\	.	16f\	.	.	.	.
.	.	.	.	.	.	16b-\JJ	.	.	16B-\JJ	.	16g\JJ	.	.	.	.
4d\	.	.	4f/	.	.	8a\L	.	.	4A\	-diſ	4f\	-diſ	.	.	.
.	.	.	.	.	.	8ff\J	.	.	.	.	.	.	.	.	.
!	!	!	!	!	!	!	!	!	!LO:LB:g=original	!	!LO:LB:g=original	!	!	!	!
=32	=32	=32	=32	=32	=32	=32	=32	=32	=32	=32	=32	=32	=32	=32	=32
!LO:TX:a:t=rytm	!	!	!	!	!	!	!	!	!	!	!	!	!	!	!
8B-\	.	6 x	16g/LL	.	.	8dd\L	.	2.ryy	16B-\LL	Cor-	16g\LL	.	2.ryy	2.ryy	2.ryy
.	.	.	16b-/	.	.	.	.	.	16d\JJ	.	16b-\JJ	.	.	.	.
8B-\L	.	.	16a/	.	.	16cc\L	.	.	16c\LL	-diſ	16a\LL	.	.	.	.
.	.	.	16g/JJ	.	.	16b-\JJ	.	.	16B-\JJ	.	16g\JJ	.	.	.	.
!	!	!	!	!	!	!	!	!	!	!	!	!	!	!	!
!LO:TX:t=P:problem=mixed beam	!	!	!	!	!	!	!	!	!	!	!	!	!	!	!
8cn\	.	.	4f/	.	.	4a/	.	.	4A/	.	4f\	ſu-	.	.	.
8c\	.	6 4	.	.	.	.	.	.	.	.	.	.	.	.	.
8C/	.	5 n	4en/	.	.	4g/	.	.	4G/	ſu-	4en\	.	.	.	.
8C/J	.	.	.	.	.	.	.	.	.	.	.	.	.	.	.
!LO:LB:g=original	!	!	!	!	!	!LO:LB:g=original	!	!	!	!	!	!	!	!	!
=33	=33	=33	=33	=33	=33	=33	=33	=33	=33	=33	=33	=33	=33	=33	=33
!	!LO:MO:null:mod=!LO&colon;DY&colon;ed=brack	!	!	!	!	!	!	!	!	!	!	!	!	!	!
!	!	!	!	!	!	!	!	!	!	!	!	!	!	!	!
!	!LO:DY:a:t=for	!	!	!	!LO:MO:null:mod=!LO&colon;DY&colon;ed=brack	!	!LO:DY:b:rj	!	!	!	!	!	!	!	!
!	!	!	!	!	!	!	!	!	!	!	!	!	!	!	!
4F\	f	.	16f/LL	.	f	16a/LL	f	2.ryy	4A/	-i	4f\	-i	2.ryy	2.ryy	2.ryy
.	.	.	16en/	.	.	16g/	.	.	.	.	.	.	.	.	.
.	.	.	16f/	.	.	16a/	.	.	.	.	.	.	.	.	.
.	.	.	16g/JJ	.	.	16b-/JJ	.	.	.	.	.	.	.	.	.
8r	.	.	8a/L	.	.	8cc\L	.	.	4r	.	4r	.	.	.	.
8F\L	.	5 3	8a/J	.	.	8ff\	.	.	.	.	.	.	.	.	.
8G\	.	6 3	8b-\L	.	.	8een\	.	.	4r	.	4r	.	.	.	.
8A\J	.	5 3	8cc\J	.	.	8ee-X\J	.	.	.	.	.	.	.	.	.
.	.	6 x	.	.	.	.	.	.	.	.	.	.	.	.	.
=34	=34	=34	=34	=34	=34	=34	=34	=34	=34	=34	=34	=34	=34	=34	=34
8.B-\L	.	5 3	4f/	.	.	8.dd\L	.	2.ryy	0.r	.	0.r	.	2.ryy	2.ryy	2.ryy
16A\Jk	.	7 #	.	.	.	16cc#X\Jk	.	.	.	.	.	.	.	.	.
4B-\	.	x 3	4f/	.	.	8dd\L	.	.	.	.	.	.	.	.	.
.	.	.	.	.	.	8dd\	.	.	.	.	.	.	.	.	.
4r	.	.	4r	.	.	8een\	.	.	.	.	.	.	.	.	.
.	.	.	.	.	.	8ff\J	.	.	.	.	.	.	.	.	.
!	!	!	!LO:LB:g=original	!	!	!	!	!	!	!	!	!	!	!	!
=35	=35	=35	=35	=35	=35	=35	=35	=35	=35-	=35	=35-	=35	=35	=35	=35
4B-\	.	6: x	8dd\L	.	.	16gg\LL	.	2.ryy	.	.	.	.	2.ryy	2.ryy	2.ryy
.	.	.	.	.	.	16ff#X\	.	.	.	.	.	.	.	.	.
.	.	.	8dd\	.	.	16gg\	.	.	.	.	.	.	.	.	.
.	.	.	.	.	.	16aa\JJ	.	.	.	.	.	.	.	.	.
4B-\	.	.	8dd\	.	.	8.bb-\L	.	.	.	.	.	.	.	.	.
.	.	.	8dd\	.	.	.	.	.	.	.	.	.	.	.	.
.	.	.	.	.	.	16gg\Jk	.	.	.	.	.	.	.	.	.
4Bn\	.	5 x	8dd\	.	.	16bb-\LL	.	.	.	.	.	.	.	.	.
.	.	.	.	.	.	16aa\	.	.	.	.	.	.	.	.	.
.	.	.	8dd\J	.	.	16gg\	.	.	.	.	.	.	.	.	.
.	.	.	.	.	.	16ffn\JJ	.	.	.	.	.	.	.	.	.
=36	=36	=36	=36	=36	=36	=36	=36	=36	=36-	=36	=36-	=36	=36	=36	=36
4c\	.	6 4	8.a/L	.	.	8.ff\L	.	2.ryy	.	.	.	.	2.ryy	2.ryy	2.ryy
!	!	!	!	!	!	!LO:SIC:s=32eeLL	!	!	!	!	!	!	!	!	!
.	.	.	32g/LL	.	.	32ee-\LL	.	.	.	.	.	.	.	.	.
.	.	.	32a/JJJ	.	.	32ff\JJJ	.	.	.	.	.	.	.	.	.
4C/	.	5 n	4g/	.	.	8een\L	.	.	.	.	.	.	.	.	.
.	.	.	.	.	.	16cc\L	.	.	.	.	.	.	.	.	.
.	.	.	.	.	.	16dd\JJ	.	.	.	.	.	.	.	.	.
4r	.	.	4r	.	.	16een\LL	.	.	.	.	.	.	.	.	.
.	.	.	.	.	.	16ff\	.	.	.	.	.	.	.	.	.
.	.	.	.	.	.	16gg\	.	.	.	.	.	.	.	.	.
.	.	.	.	.	.	16aa\JJ	.	.	.	.	.	.	.	.	.
=37	=37	=37	=37	=37	=37	=37	=37	=37	=37-	=37	=37-	=37	=37	=37	=37
4r	.	.	4r	.	.	16bb-\LL	.	2.ryy	.	.	.	.	2.ryy	2.ryy	2.ryy
.	.	.	.	.	.	16gg\	.	.	.	.	.	.	.	.	.
.	.	.	.	.	.	16een\	.	.	.	.	.	.	.	.	.
.	.	.	.	.	.	16cc\JJ	.	.	.	.	.	.	.	.	.
4En\	.	6 5	4c/ 4g/	.	.	16b-\LL	.	.	.	.	.	.	.	.	.
.	.	.	.	.	.	16cc\	.	.	.	.	.	.	.	.	.
.	.	.	.	.	.	16g\	.	.	.	.	.	.	.	.	.
.	.	.	.	.	.	16cc\JJ	.	.	.	.	.	.	.	.	.
4F\	.	.	4c/ 4a/	.	.	16a\LL	.	.	.	.	.	.	.	.	.
.	.	.	.	.	.	16cc\	.	.	.	.	.	.	.	.	.
.	.	.	.	.	.	16ff\	.	.	.	.	.	.	.	.	.
.	.	.	.	.	.	16aa\JJ	.	.	.	.	.	.	.	.	.
!	!	!	!	!	!	!LO:LB:g=original	!	!	!	!	!	!	!	!	!
=38	=38	=38	=38	=38	=38	=38	=38	=38	=38-	=38	=38-	=38	=38	=38	=38
4r	.	.	4r	.	.	16bb-\LL	.	2.ryy	1.r	.	0.r	.	2.ryy	2.ryy	2.ryy
.	.	.	.	.	.	16gg\	.	.	.	.	.	.	.	.	.
.	.	.	.	.	.	16een\	.	.	.	.	.	.	.	.	.
.	.	.	.	.	.	16cc\JJ	.	.	.	.	.	.	.	.	.
4En\	.	6 5	4c/ 4g/	.	.	16b-\LL	.	.	.	.	.	.	.	.	.
.	.	.	.	.	.	16cc\	.	.	.	.	.	.	.	.	.
.	.	.	.	.	.	16g\	.	.	.	.	.	.	.	.	.
.	.	.	.	.	.	16cc\JJ	.	.	.	.	.	.	.	.	.
4F\	.	.	4c/ 4a/	.	.	16a\LL	.	.	.	.	.	.	.	.	.
.	.	.	.	.	.	16cc\	.	.	.	.	.	.	.	.	.
.	.	.	.	.	.	16ff\	.	.	.	.	.	.	.	.	.
.	.	.	.	.	.	16aa\JJ	.	.	.	.	.	.	.	.	.
=39	=39	=39	=39	=39	=39	=39	=39	=39	=39-	=39	=39-	=39	=39	=39	=39
4r	.	.	4r	.	.	16aa\LL	.	2.ryy	.	.	.	.	2.ryy	2.ryy	2.ryy
.	.	.	.	.	.	16gg\	.	.	.	.	.	.	.	.	.
.	.	.	.	.	.	16ff\	.	.	.	.	.	.	.	.	.
.	.	.	.	.	.	16gg\JJ	.	.	.	.	.	.	.	.	.
4BB-/	.	6 5	4dd\	.	.	8.bb-\L	.	.	.	.	.	.	.	.	.
.	.	.	.	.	.	16gg\Jk	.	.	.	.	.	.	.	.	.
4C/	.	x n	4g/	.	.	16gg\LL	.	.	.	.	.	.	.	.	.
.	.	.	.	.	.	16ff\	.	.	.	.	.	.	.	.	.
.	.	.	.	.	.	16ff\	.	.	.	.	.	.	.	.	.
.	.	.	.	.	.	16een\JJ	.	.	.	.	.	.	.	.	.
=40	=40	=40	=40	=40	=40	=40	=40	=40	=40-	=40	=40-	=40	=40	=40	=40
4F\	.	.	8a/L	.	.	8.ff\L	.	2.ryy	2.r	.	.	.	2.ryy	2.ryy	2.ryy
.	.	.	8cc/J	.	.	.	.	.	.	.	.	.	.	.	.
.	.	.	.	.	.	16aa\Jk	.	.	.	.	.	.	.	.	.
4FF/	.	.	4a/	.	.	4ff\	.	.	.	.	.	.	.	.	.
4r	.	.	4r	.	.	4r	.	.	.	.	.	.	.	.	.
!LO:LB:g=original	!	!	!	!	!	!	!	!	!	!	!	!	!	!	!
=41	=41	=41	=41	=41	=41	=41	=41	=41	=41	=41	=41-	=41	=41	=41	=41
*	*	*	*	*	*	*tremolo	*	*	*	*	*	*	*	*	*
!	!	!	!	!	!LO:MO:null:mod=!LO&colon;DY&colon;ed=brack	!	!LO:MO:null:mod=!LO&colon;DY&colon;ed=brack	!	!	!	!	!	!	!	!
!	!	!	!	!	!	!	!	!	!	!	!	!	!	!	!
!	!LO:DY:a:t=pia	!	!	!	!	!	!	!	!	!	!	!	!	!	!
8F\L	p	.	8a/L	.	p	8cc\L	p	2.ryy	4c\	De-	.	.	2.ryy	2.ryy	2.ryy
8F\	.	.	8a/	.	.	8cc\	.	.	.	.	.	.	.	.	.
8F\	.	.	8a/	.	.	8cc\	.	.	4f\	-po-	.	.	.	.	.
8F\	.	.	8a/	.	.	8cc\	.	.	.	.	.	.	.	.	.
8F\	.	4 3	8a/	.	.	8cc\	.	.	4e-X\	-ſu-	.	.	.	.	.
8F\J	.	6 x	8a/J	.	.	8cc\J	.	.	.	.	.	.	.	.	.
=42	=42	=42	=42	=42	=42	=42	=42	=42	=42	=42	=42	=42	=42	=42	=42
*2\right	*	*	*	*	*	*	*	*	*	*	*	*	*	*	*
*tremolo	*	*	*tremolo	*	*	*tremolo	*	*	*	*	*	*	*	*	*
8F\L	.	n4r 2	8b-/L	.	.	8dd\L	.	2.ryy	2d\	-it	4f\	po-	2.ryy	2.ryy	2.ryy
8F\	.	.	8b-/	.	.	8dd\	.	.	.	.	.	.	.	.	.
8F\	.	.	8b-/	.	.	8dd\	.	.	.	.	4b-\	-ten-	.	.	.
8F\	.	.	8b-/	.	.	8dd\	.	.	.	.	.	.	.	.	.
!	!	!	!	!	!	!	!	!	!LO:TX:b:t=Volti Subitto:mod=	!	!	!	!	!	!
8F\	.	.	8b-/	.	.	8dd\	.	.	4d\	po-	4a\	.	.	.	.
8F\J	.	.	8b-/J	.	.	8dd\J	.	.	.	.	.	.	.	.	.
!	!	!	!LO:LB:g=original	!	!	!	!	!	!LO:PB:g=original	!	!	!	!	!	!
=43	=43	=43	=43	=43	=43	=43	=43	=43	=43	=43	=43	=43	=43	=43	=43
8F\L	.	n4r 2	8g/L	.	.	8een\L	.	2.ryy	4.en\	-ten-	4.g\	.	2.ryy	2.ryy	2.ryy
8F\	.	.	8g/	.	.	8ee\	.	.	.	.	.	.	.	.	.
8F\	.	.	8g/	.	.	8ee\	.	.	.	.	.	.	.	.	.
8F\	.	.	8g/	.	.	8ee\	.	.	24f\LL	.	24a\LL	.	.	.	.
.	.	.	.	.	.	.	.	.	24g\	.	24b-\	.	.	.	.
.	.	.	.	.	.	.	.	.	24f\JJ	.	24a\JJ	.	.	.	.
8F\	.	.	8g/	.	.	8ee\	.	.	16a\LL	.	16cc\LL	.	.	.	.
.	.	.	.	.	.	.	.	.	16g\	.	16b-\	.	.	.	.
8F\J	.	.	8g/J	.	.	8ee\J	.	.	16f\	-teſ	16a\	.	.	.	.
.	.	.	.	.	.	.	.	.	16e\JJ	.	16g\JJ	.	.	.	.
*Xtremolo	*	*	*	*	*	*Xtremolo	*	*	*	*	*	*	*	*	*
!	!	!	!	!	!	!	!	!	!	!	!LO:LB:g=original	!	!	!	!
=44	=44	=44	=44	=44	=44	=44	=44	=44	=44	=44	=44	=44	=44	=44	=44
8F\L	.	8: 3:	8a/L	.	.	8ff\L	.	2.ryy	4f\	po-	4a\	-tes	2.ryy	2.ryy	2.ryy
8F\	.	.	8a/	.	.	8cc\	.	.	.	.	.	.	.	.	.
8F\	.	.	8a/	.	.	8cc\	.	.	4f\	-ten-	4r	.	.	.	.
8F\	.	.	8a/	.	.	8cc\	.	.	.	.	.	.	.	.	.
8F\	.	7 5:	8a/	.	.	8cc\	.	.	4e-X\	-tes	4r	.	.	.	.
8F\J	.	6: x	8a/J	.	.	8cc\J	.	.	.	.	.	.	.	.	.
!	!	!	!	!	!	!LO:LB:g=original	!	!	!	!	!	!	!	!	!
=45	=45	=45	=45	=45	=45	=45	=45	=45	=45	=45	=45	=45	=45	=45	=45
*tremolo	*	*	*	*	*	*tremolo	*	*	*	*	*	*	*	*	*
8F\L	.	6 4	8b-/L	.	.	8dd\L	.	2.ryy	2d\	de	4f\	de-	2.ryy	2.ryy	2.ryy
8F\	.	.	8b-/	.	.	8dd\	.	.	.	.	.	.	.	.	.
8F\	.	.	8b-/	.	.	8dd\	.	.	.	.	4b-\	.	.	.	.
8F\	.	.	8b-/	.	.	8dd\	.	.	.	.	.	.	.	.	.
!	!	!	!	!	!	!	!	!	!	!	!	!LO:MO:mod=-se-	!	!	!
8F\	.	.	8b-/	.	.	8dd\	.	.	4d\	ſe-	4a\	-ſi-	.	.	.
8F\J	.	.	8b-/J	.	.	8dd\J	.	.	.	.	.	.	.	.	.
=46	=46	=46	=46	=46	=46	=46	=46	=46	=46	=46	=46	=46	=46	=46	=46
8F\L	.	n7r 2	8g/L	.	.	8een\L	.	2.ryy	4.en\	.	4.g\	.	2.ryy	2.ryy	2.ryy
8F\	.	.	8g/	.	.	8ee\	.	.	.	.	.	.	.	.	.
8F\	.	.	8g/	.	.	8ee\	.	.	.	.	.	.	.	.	.
8F\	.	.	8g/	.	.	8ee\	.	.	24f\LL	.	24a\LL	.	.	.	.
.	.	.	.	.	.	.	.	.	24g\	.	24b-\	.	.	.	.
.	.	.	.	.	.	.	.	.	24f\JJ	.	24a\JJ	.	.	.	.
8F\	.	.	8g/	.	.	8ee\	.	.	16a\LL	.	16cc\LL	.	.	.	.
.	.	.	.	.	.	.	.	.	16g\	.	16b-\	.	.	.	.
!	!	!	!	!	!	!	!	!	!	!LO:MO:mod=.	!	!	!	!	!
8F\J	.	.	8g/J	.	.	8ee\J	.	.	16f\	-de	16a\	.	.	.	.
.	.	.	.	.	.	.	.	.	16e\JJ	.	16g\JJ	.	.	.	.
*	*	*	*	*	*	*Xtremolo	*	*	*	*	*	*	*	*	*
=47	=47	=47	=47	=47	=47	=47	=47	=47	=47	=47	=47	=47	=47	=47	=47
!	!	!	!	!	!	!	!	!	!	!LO:MO:null:mod=-de	!	!	!	!	!
8F\L	.	7 3	8a/L	.	.	8ff\L	.	2.ryy	8f\	.	8a\	-de	2.ryy	2.ryy	2.ryy
!	!	!	!	!	!	!	!	!	!	!LO:MO:mod=et	!	!	!	!	!
8F\	.	.	8a/	.	.	8cc\	.	.	8f\	(et)	8a\	et	.	.	.
!	!	!	!	!	!	!	!	!	!LO:LB:g=original	!	!	!	!	!	!
8F\	.	7 5	8a/	.	.	8cc\	.	.	4.f\	ex-	4.a\	ex-	.	.	.
8F\	.	.	8a/	.	.	8cc\	.	.	.	.	.	.	.	.	.
8F\	.	6 x	8a/	.	.	8cc\	.	.	.	.	.	.	.	.	.
8F\J	.	.	8a/J	.	.	8cc\J	.	.	8e-X\	-al-	16b-\LL	-al-	.	.	.
.	.	.	.	.	.	.	.	.	.	.	16cc\JJ	.	.	.	.
*	*	*	*Xtremolo	*	*	*	*	*	*	*	*	*	*	*	*
=48	=48	=48	=48	=48	=48	=48	=48	=48	=48	=48	=48	=48	=48	=48	=48
8F\L	.	6: 4:	8r	.	.	8r	.	2.ryy	8e-\L	-ta-	8cc\L	-ta-	2.ryy	2.ryy	2.ryy
*	*	*	*	*	*	*tremolo	*	*	*	*	*	*	*	*	*
8F\	.	.	8b-\L	.	.	8dd\L	.	.	8d\J	.	8b-\J	.	.	.	.
8F\	.	.	8b-\	.	.	8dd\	.	.	4d\	-vit	4b-\	-vit	.	.	.
8F\	.	.	8b-\	.	.	8dd\	.	.	.	.	.	.	.	.	.
8F\	.	.	8b-\	.	.	8dd\	.	.	4r	.	4r	.	.	.	.
8F\J	.	.	8b-\J	.	.	8dd\J	.	.	.	.	.	.	.	.	.
*Xtremolo	*	*	*	*	*	*	*	*	*	*	*	*	*	*	*
!	!	!	!	!	!	!	!	!	!	!	!LO:LB:g=original	!	!	!	!
=49	=49	=49	=49	=49	=49	=49	=49	=49	=49	=49	=49	=49	=49	=49	=49
!	!	!	!	!	!	!	!	!	!	!LO:MO:mod=et	!	!	!	!	!
8r	.	.	8r	.	.	8r	.	2.ryy	4.d\	(et)	4.b-\	et	2.ryy	2.ryy	2.ryy
*	*	*	*tremolo	*	*	*	*	*	*	*	*	*	*	*	*
8F\L	.	6: 4:	8b-\L	.	.	8dd\L	.	.	.	.	.	.	.	.	.
8F\	.	.	8b-\	.	.	8dd\	.	.	.	.	.	.	.	.	.
8F\	.	.	8b-\	.	.	8dd\	.	.	16f\LL	ex-	16dd\LL	ex-	.	.	.
.	.	.	.	.	.	.	.	.	16en\JJ	.	16cc\JJ	.	.	.	.
8F\	.	.	8b-\	.	.	8dd\	.	.	16g\LL	.	16ee-\LL	.	.	.	.
.	.	.	.	.	.	.	.	.	16f\JJ	.	16dd\JJ	.	.	.	.
8F\J	.	.	8b-\J	.	.	8dd\J	.	.	16e\LL	-al-	16cc\LL	-al-	.	.	.
.	.	.	.	.	.	.	.	.	16d\JJ	.	16b-\JJ	.	.	.	.
!LO:LB:g=original	!	!	!	!	!	!	!	!	!	!	!	!	!	!	!
=50	=50	=50	=50	=50	=50	=50	=50	=50	=50	=50	=50	=50	=50	=50	=50
8r	.	.	8r	.	.	8r	.	2.ryy	8d\L	-ta-	8b-\L	-ta-	2.ryy	2.ryy	2.ryy
8F\L	.	5: 3:	8a/L	.	.	8cc\L	.	.	8c\J	.	8a\J	.	.	.	.
8F\	.	.	8a/	.	.	8cc\	.	.	4c\	-vit	4a\	-vit	.	.	.
8F\	.	.	8a/	.	.	8cc\	.	.	.	.	.	.	.	.	.
8F\	.	.	8a/	.	.	8cc\	.	.	4r	.	4r	.	.	.	.
8F\J	.	.	8a/J	.	.	8cc\J	.	.	.	.	.	.	.	.	.
=51	=51	=51	=51	=51	=51	=51	=51	=51	=51	=51	=51	=51	=51	=51	=51
!	!	!	!	!	!	!	!	!	!	!LO:MO:mod=et	!	!	!	!	!
8r	.	.	8r	.	.	8r	.	2.ryy	2c\	(et)	2a\	et	2.ryy	2.ryy	2.ryy
8F\L	.	.	8a/L	.	.	8ff\L	.	.	.	.	.	.	.	.	.
8F\	.	.	8a/	.	.	8ff\	.	.	.	.	.	.	.	.	.
8F\	.	.	8a/	.	.	8ff\	.	.	.	.	.	.	.	.	.
8F\	.	.	8a/	.	.	8ff\	.	.	16c\LL	ex-	16a\LL	ex-	.	.	.
.	.	.	.	.	.	.	.	.	16d\JJ	.	16b-\JJ	.	.	.	.
8F\J	.	.	8a/J	.	.	8ff\J	.	.	16en\LL	-al-	16cc\LL	-al-	.	.	.
.	.	.	.	.	.	.	.	.	16f\JJ	.	16a\JJ	.	.	.	.
!	!	!	!	!	!	!	!	!	!LO:LB:g=original	!	!	!	!	!	!
=52	=52	=52	=52	=52	=52	=52	=52	=52	=52	=52	=52	=52	=52	=52	=52
8r	.	.	8r	.	.	8r	.	2.ryy	8e-\L	-ta-	8a\L	-ta-	2.ryy	2.ryy	2.ryy
8B-\L	.	6 x	8dd\L	.	.	8gg\L	.	.	8d\J	.	8b-\J	.	.	.	.
8B-\	.	.	8dd\	.	.	8gg\	.	.	4d\	-vit	4b-\	-vit	.	.	.
8B-\	.	.	8dd\	.	.	8gg\	.	.	.	.	.	.	.	.	.
8B-\	.	.	8dd\	.	.	8gg\	.	.	8r	.	8r	.	.	.	.
!	!	!	!	!	!	!	!	!	!	!LO:MO:mod=et	!	!LO:MO:mod=et	!	!	!
8B-\J	.	.	8dd\J	.	.	8gg\J	.	.	8g\	(et)	8b-\	(et)	.	.	.
*	*	*	*Xtremolo	*	*	*Xtremolo	*	*	*	*	*	*	*	*	*
!	!	!	!	!	!	!	!	!	!	!	!LO:LB:g=original	!	!	!	!
=53	=53	=53	=53	=53	=53	=53	=53	=53	=53	=53	=53	=53	=53	=53	=53
!	!	!	!	!	!	!	!	!	!	!	!	!	!	!	!
!LO:TX:t=P:problem=mixed beam	!	!	!	!	!	!	!	!	!	!	!	!LO:MO:mod=ex-	!	!	!
8c\L	.	6 4	8cc/L	.	.	8ff\L	.	2.ryy	8f\	ex-	8a\	Et	2.ryy	2.ryy	2.ryy
!	!	!	!	!	!	!	!	!	!	!	!	!LO:MO:mod=.	!	!	!
8c\	.	.	8a/J	.	.	16een\L	.	.	16en\LL	-al-	16g\LL	ex-	.	.	.
!	!	!	!	!	!	!	!	!	!	!	!	!LO:MO:null:mod=-al-	!	!	!
.	.	.	.	.	.	16ff\JJ	.	.	16f\JJ	.	16a\JJ	.	.	.	.
!	!	!	!	!	!	!	!	!	!	!	!	!LO:MO:mod=-ta	!	!	!
8c\	.	5: n:	4b-/	.	.	4gg\	.	.	4g\	-ta-	4b-\	-al-	.	.	.
8c\	.	.	.	.	.	.	.	.	.	.	.	.	.	.	.
!	!	!	!	!	!	!	!	!	!	!	!	!LO:MO:mod=-vit	!	!	!
8C/	.	.	4g/	.	.	4ee\	.	.	4e\	-vit	4g\	-ta	.	.	.
8C/J	.	.	.	.	.	.	.	.	.	.	.	.	.	.	.
!	!	!	!LO:LB:g=original	!	!	!	!	!	!	!	!	!	!	!	!
=54	=54	=54	=54	=54	=54	=54	=54	=54	=54	=54	=54	=54	=54	=54	=54
*tremolo	*	*	*	*	*	*	*	*	*	*	*	*	*	*	*
8F\L	.	.	8.a/L	.	.	8ff\L	.	2.ryy	8f\	hu-	8a\	hu-	2.ryy	2.ryy	2.ryy
8F\	.	.	.	.	.	8een\J	.	.	8f\	-mi-	8a\	-mi-	.	.	.
.	.	.	16g/Jk	.	.	.	.	.	.	.	.	.	.	.	.
8F\	.	.	8a\L	.	.	8ff\L	.	.	4f\	-les	4a\	-les	.	.	.
8F\	.	.	16cc\L	.	.	16aa\L	.	.	.	.	.	.	.	.	.
.	.	.	16b-\JJ	.	.	16gg\JJ	.	.	.	.	.	.	.	.	.
8F\	.	.	16dd\LL	.	.	16bb-\LL	.	.	8r	.	8r	.	.	.	.
.	.	.	16cc\	.	.	16aa\	.	.	.	.	.	.	.	.	.
!	!	!	!	!	!	!	!	!	!	!LO:MO:mod=et	!	!LO:MO:mod=et	!	!	!
8F\J	.	.	16b-\	.	.	16gg\	.	.	8A\	(et)	8f\	(et)	.	.	.
.	.	.	16a\JJ	.	.	16ff\JJ	.	.	.	.	.	.	.	.	.
*Xtremolo	*	*	*	*	*	*	*	*	*	*	*	*	*	*	*
!	!	!	!	!	!	!LO:LB:g=original	!	!	!	!	!	!	!	!	!
=55	=55	=55	=55	=55	=55	=55	=55	=55	=55	=55	=55	=55	=55	=55	=55
8r	.	.	8r	.	.	8r	.	2.ryy	2.B-\	ex-	4en\	ex-	2.ryy	2.ryy	2.ryy
*	*	*	*	*	*	*tremolo	*	*	*	*	*	*	*	*	*
8G\L	.	6: 3:	8b-\L	.	.	8een\L	.	.	.	.	.	.	.	.	.
8G\	.	.	8b-\	.	.	8ee\	.	.	.	.	16e\LL	.	.	.	.
.	.	.	.	.	.	.	.	.	.	.	16f\	.	.	.	.
8G\	.	.	8b-\	.	.	8ee\	.	.	.	.	16g\	.	.	.	.
.	.	.	.	.	.	.	.	.	.	.	16a\JJ	.	.	.	.
8G\	.	.	8b-\	.	.	8ee\	.	.	.	.	16b-\LL	.	.	.	.
.	.	.	.	.	.	.	.	.	.	.	16g\JJ	.	.	.	.
8G\J	.	.	8b-\J	.	.	8ee\J	.	.	.	.	16f\LL	-al-	.	.	.
.	.	.	.	.	.	.	.	.	.	.	16en\JJ	-ta-	.	.	.
!LO:LB:g=original	!	!	!	!	!	!	!	!	!	!	!LO:PB:g=original	!	!	!	!
=56	=56	=56	=56	=56	=56	=56	=56	=56	=56	=56	=56	=56	=56	=56	=56
8r	.	.	8r	.	.	8r	.	2.ryy	2.A\	-al-	4f\	.	2.ryy	2.ryy	2.ryy
*	*	*	*tremolo	*	*	*	*	*	*	*	*	*	*	*	*
8F\L	.	x 3	8a/L	.	.	8ff\L	.	.	.	.	.	.	.	.	.
8F\	.	.	8a/	.	.	8ff\	.	.	.	.	16f\LL	.	.	.	.
.	.	.	.	.	.	.	.	.	.	.	16g\	.	.	.	.
8F\	.	.	8a/	.	.	8ff\	.	.	.	.	16a\	.	.	.	.
.	.	.	.	.	.	.	.	.	.	.	16f\JJ	.	.	.	.
8F\	.	.	8a/	.	.	8ff\	.	.	.	.	16b-\LL	.	.	.	.
.	.	.	.	.	.	.	.	.	.	.	16a\	.	.	.	.
8F\J	.	.	8a/J	.	.	8ff\J	.	.	.	.	16g\	.	.	.	.
.	.	.	.	.	.	.	.	.	.	.	16f\JJ	.	.	.	.
=57	=57	=57	=57	=57	=57	=57	=57	=57	=57	=57	=57	=57	=57	=57	=57
8r	.	.	8r	.	.	8r	.	2.ryy	2B-\	-ta-	4en\	.	2.ryy	2.ryy	2.ryy
8G\L	.	6 3	8b-\L	.	.	8een\L	.	.	.	.	.	.	.	.	.
8G\	.	.	8b-\	.	.	8ee\	.	.	.	.	16e\LL	.	.	.	.
.	.	.	.	.	.	.	.	.	.	.	16f\	.	.	.	.
8G\	.	.	8b-\	.	.	8ee\	.	.	.	.	16g\	.	.	.	.
.	.	.	.	.	.	.	.	.	.	.	16a\JJ	.	.	.	.
8G\	.	.	8b-\	.	.	8ee\	.	.	4B-\	-vit	16b-\LL	.	.	.	.
.	.	.	.	.	.	.	.	.	.	.	16g\JJ	.	.	.	.
8G\J	.	.	8b-\J	.	.	8ee\J	.	.	.	.	16f\LL	-vit	.	.	.
.	.	.	.	.	.	.	.	.	.	.	16e\JJ	.	.	.	.
*	*	*	*Xtremolo	*	*	*Xtremolo	*	*	*	*	*	*	*	*	*
!	!	!	!	!	!	!	!	!	!LO:LB:g=original	!	!	!	!	!	!
=58	=58	=58	=58	=58	=58	=58	=58	=58	=58	=58	=58	=58	=58	=58	=58
4F\	.	.	8b-/L	.	.	8gg\L	.	2.ryy	8B-\	hu-	8g\	hu-	2.ryy	2.ryy	2.ryy
.	.	.	8a/J	.	.	8ff\J	.	.	8A\	-mi-	8f\	-mi-	.	.	.
4F;>\	.	.	4a;>/	.	.	4ff;>\	.	.	4A;>\	-les	4f;>\	-les	.	.	.
4r	.	.	4r	.	.	4r	.	.	4r	.	4r	.	.	.	.
!	!	!	!	!	!	!	!	!	!	!	!LO:LB:g=original	!	!	!	!
=59	=59	=59	=59	=59	=59	=59	=59	=59	=59	=59	=59	=59	=59	=59	=59
4B-\	.	.	8.dd\L	.	.	8.ff\L	.	2.ryy	8.d\L	E-	8.f\L	E-	2.ryy	2.ryy	2.ryy
.	.	.	16ee-\Jk	.	.	16gg\Jk	.	.	16e-X\Jk	.	16g\Jk	.	.	.	.
4B-\	.	.	8dd\L	.	.	8ff\L	.	.	8d\L	.	8f\L	.	.	.	.
.	.	.	8b-\	.	.	8dd\	.	.	8B-\J	.	8d\J	.	.	.	.
4B-\	.	.	8dd\	.	.	8bb-\	.	.	8d\	-ſu-	8b-\	-ſu-	.	.	.
.	.	.	8ff\J	.	.	8aa\J	.	.	8f\	-ri-	8a\	-ri-	.	.	.
=60	=60	=60	=60	=60	=60	=60	=60	=60	=60	=60	=60	=60	=60	=60	=60
4B-\	.	6 4	8.ee-\L	.	.	8.gg\L	.	2.ryy	8.e-\L	-en-	8.g\L	-en-	2.ryy	2.ryy	2.ryy
.	.	.	32dd\LL	.	.	32ff\LL	.	.	32d\LL	.	32f\LL	.	.	.	.
.	.	.	32ee-\JJJ	.	.	32gg\JJJ	.	.	32e-\JJJ	.	32g\JJJ	.	.	.	.
4BB-/	.	5 3	8dd\L	.	.	8ff\L	.	.	4d\	-tes	4f\	-tes	.	.	.
.	.	.	8b-\J	.	.	8dd\J	.	.	.	.	.	.	.	.	.
4r	.	.	16b-\LL	.	.	16dd\LL	.	.	4r	.	4r	.	.	.	.
.	.	.	16a\	.	.	16cc#X\	.	.	.	.	.	.	.	.	.
.	.	.	16b-\	.	.	16dd\	.	.	.	.	.	.	.	.	.
.	.	.	16cc\JJ	.	.	16ee-\JJ	.	.	.	.	.	.	.	.	.
!	!	!	!LO:LB:g=original	!	!	!	!	!	!	!	!	!	!	!	!
=61	=61	=61	=61	=61	=61	=61	=61	=61	=61	=61	=61	=61	=61	=61	=61
4B-\	.	.	8.dd\L	.	.	8.ff\L	.	2.ryy	8.d\L	im-	8.f\L	im-	2.ryy	2.ryy	2.ryy
.	.	.	16ee-\Jk	.	.	16gg\Jk	.	.	16e-\Jk	.	16g\Jk	.	.	.	.
4B-\	.	.	8dd\L	.	.	8ff\L	.	.	8d\L	.	8f\L	-ple-	.	.	.
.	.	.	8b-\	.	.	8dd\J	.	.	8B-\J	.	8d\J	.	.	.	.
4B-\	.	.	8dd\	.	.	16bb-\LL	.	.	8d\	-ple-	16b-\LL	-vit	.	.	.
.	.	.	.	.	.	16aa\	.	.	.	.	16a\JJ	.	.	.	.
.	.	.	8dd\J	.	.	16gg\	.	.	8d\	-vit	16g\LL	.	.	.	.
.	.	.	.	.	.	16ff\JJ	.	.	.	.	16f\JJ	.	.	.	.
!	!	!	!	!	!	!LO:LB:g=original	!	!	!LO:LB:g=original	!	!LO:LB:g=original	!	!	!	!
=62	=62	=62	=62	=62	=62	=62	=62	=62	=62	=62	=62	=62	=62	=62	=62
4F\	.	x 4	8.cc\L	.	.	8.ee-\L	.	2.ryy	8.c\L	bo-	8.e-\L	bo-	2.ryy	2.ryy	2.ryy
.	.	.	32b-\LL	.	.	32dd\LL	.	.	32B-\LL	.	32d\LL	.	.	.	.
.	.	.	32cc\JJJ	.	.	32ee-\JJJ	.	.	32c\JJJ	.	32e-\JJJ	.	.	.	.
4BB-/	.	.	8b-\L	.	.	8dd\L	.	.	4B-\	-nus	4d\	-nuſ	.	.	.
.	.	.	16b-\L	.	.	16dd\L	.	.	.	.	.	.	.	.	.
.	.	.	16dd\JJ	.	.	16ff\JJ	.	.	.	.	.	.	.	.	.
8r	.	.	16cc\LL	.	.	16ee-\LL	.	.	8r	.	8r	.	.	.	.
.	.	.	16b-\	.	.	16dd\	.	.	.	.	.	.	.	.	.
!	!	!	!	!	!	!	!	!	!	!LO:MO:mod=et	!	!LO:MO:mod=et	!	!	!
8BB-/	.	.	16a\	.	.	16cc\	.	.	8B-\	(et)	8d\	(et)	.	.	.
.	.	.	16b-\JJ	.	.	16dd\JJ	.	.	.	.	.	.	.	.	.
=63	=63	=63	=63	=63	=63	=63	=63	=63	=63	=63	=63	=63	=63	=63	=63
4F\	.	x n	8.cc\L	.	.	8.ee-\L	.	2.ryy	8.c\	di-	8.e-\	di-	2.ryy	2.ryy	2.ryy
.	.	.	16b-\Jk	.	.	16dd\Jk	.	.	16B-\	-vi-	16d\	-vi-	.	.	.
4FF/	.	.	8.a/L	.	.	8cc\L	.	.	4A\	-tes	4c\	-tes	.	.	.
.	.	.	.	.	.	16bn\L	.	.	.	.	.	.	.	.	.
.	.	.	32g#X/LL	.	.	16cc\JJ	.	.	.	.	.	.	.	.	.
.	.	.	32a/JJJ	.	.	.	.	.	.	.	.	.	.	.	.
8r	.	.	16b-\LL	.	.	16cc#X\LL	.	.	8r	.	8r	.	.	.	.
.	.	.	16bn\	.	.	16dd\	.	.	.	.	.	.	.	.	.
*	*	*	*	*	*	*	*	*	*	*ij	*	*	*	*	*
!	!	!	!	!	!	!	!	!	!	!	!	!LO:MO:mod=et	!	!	!
8F\	.	.	16cc\	.	.	16ee-\	.	.	8A\	et	8c\	(et)	.	.	.
.	.	.	16cc#X\JJ	.	.	16een\JJ	.	.	.	.	.	.	.	.	.
!LO:LB:g=original	!	!	!	!	!	!	!	!	!	!	!	!	!	!	!
=64	=64	=64	=64	=64	=64	=64	=64	=64	=64	=64	=64	=64	=64	=64	=64
4B-\	.	.	8.dd\L	.	.	8.ff\L	.	2.ryy	8.d\	di-	8.f\	di-	2.ryy	2.ryy	2.ryy
.	.	.	16ccn\Jk	.	.	16ee-X\Jk	.	.	16c\	-vi-	16e-\	-vi-	.	.	.
4BB-/	.	.	8b-X\L	.	.	8dd\L	.	.	4B-\	-tes	4d\	-tes	.	.	.
*	*	*	*	*	*	*	*	*	*	*Xij	*	*	*	*	*
.	.	.	16b-\L	.	.	16dd\L	.	.	.	.	.	.	.	.	.
.	.	.	16cc\JJ	.	.	16ee-\JJ	.	.	.	.	.	.	.	.	.
8r	.	.	8dd\L	.	.	16ff\LL	.	.	8r	.	8r	.	.	.	.
.	.	.	.	.	.	16gg\	.	.	.	.	.	.	.	.	.
8B-\	.	.	8dd\J	.	.	16aa\	.	.	8d\	di-	8b-\	di-	.	.	.
.	.	.	.	.	.	16bb-\JJ	.	.	.	.	.	.	.	.	.
!	!	!	!	!	!	!	!	!	!	!	!LO:LB:g=original	!	!	!	!
=65	=65	=65	=65	=65	=65	=65	=65	=65	=65	=65	=65	=65	=65	=65	=65
!	!	!	!	!	!	!	!	!	!	!	!	!	!	!	!
!LO:TX:t=P:problem=mixed beam	!	!	!	!	!	!	!	!	!	!	!	!	!	!	!
.	.	.	.	.	.	8qqaa/	.	.	.	.	.	.	.	.	.
!	!	!	!	!	!	!	!	!	!	!	!	!LO:MO:null:mod=-mis-	!	!	!
8E-\L	.	6 x	8ee-\L	.	.	8gg\L	.	2.ryy	8e-\	-miſ-	8g\	.	2.ryy	2.ryy	2.ryy
!	!	!	!	!	!	!	!	!	!	!	!	!LO:MO:mod=.	!	!	!
8E-\	.	.	16dd\L	.	.	16ff\L	.	.	16d\LL	.	16f\LL	-miſ-	.	.	.
.	.	.	16cc\JJ	.	.	16ee-\JJ	.	.	16c\JJ	.	16e-\JJ	.	.	.	.
8F\	.	6 4	4b-\	.	.	4dd\	.	.	4B-\	-sit	4d\	-sit	.	.	.
8F\	.	.	.	.	.	.	.	.	.	.	.	.	.	.	.
8FF/	.	5 3	4a\	.	.	4cc\	.	.	4A\	i-	4c\	i-	.	.	.
8FF/J	.	.	.	.	.	.	.	.	.	.	.	.	.	.	.
!	!	!	!	!	!	!	!	!	!LO:LB:g=original	!	!	!	!	!	!
=66	=66	=66	=66	=66	=66	=66	=66	=66	=66	=66	=66	=66	=66	=66	=66
!	!	!	!	!	!	!	!	!	!	!	!	!	!	!	!
!LO:TX:t=P:problem=mixed beam	!	!	!	!	!	!	!	!	!	!	!	!	!	!	!
8BB-/L	.	.	8b-\L	.	.	8dd\L	.	2.ryy	8c\L	-na-	8e-\L	-na-	2.ryy	2.ryy	2.ryy
16B-\L	.	.	16b-\L	.	.	16b-\L	.	.	8B-\J	.	8d\J	.	.	.	.
16A\JJ	.	.	16a\JJ	.	.	16a\JJ	.	.	.	.	.	.	.	.	.
8B-\L	.	.	8b-/L	.	.	8b-/L	.	.	4B-\	-nes	4d\	-nes	.	.	.
8F\	.	.	8f/	.	.	8f/	.	.	.	.	.	.	.	.	.
8D\	.	.	8d/	.	.	8d/	.	.	8r	.	8r	.	.	.	.
!	!	!	!LO:TX:b:t=Verte	!	!	!	!	!	!	!LO:MO:mod=et	!	!	!	!	!
8BB-\J	.	.	8B-/J	.	.	8B-/J	.	.	8f\	(et)	8d\	et	.	.	.
!	!	!	!LO:PB:g=original	!	!	!	!	!	!	!	!	!	!	!	!
=67	=67	=67	=67	=67	=67	=67	=67	=67	=67	=67	=67	=67	=67	=67	=67
8r	.	.	8r	.	.	8r	.	2.ryy	16g\LL	di-	8d\	di-	2.ryy	2.ryy	2.ryy
.	.	.	.	.	.	.	.	.	16f\JJ	.	.	.	.	.	.
*	*	*	*	*	*	*tremolo	*	*	*	*	*	*	*	*	*
8B-\L	.	.	8d/L	.	.	8b-\L	.	.	16d\LL	-vi-	8d\	-vi-	.	.	.
.	.	.	.	.	.	.	.	.	16B-\JJ	.	.	.	.	.	.
8B-\	.	.	8d/	.	.	8b-\	.	.	4F/	-tes	4d\	-tes	.	.	.
8B-\	.	.	8d/	.	.	8b-\	.	.	.	.	.	.	.	.	.
8B-\	.	.	8d/	.	.	8b-\	.	.	8r	.	8r	.	.	.	.
8B-\J	.	.	8d/J	.	.	8b-\J	.	.	8B-\	di-	8d\	di-	.	.	.
=68	=68	=68	=68	=68	=68	=68	=68	=68	=68	=68	=68	=68	=68	=68	=68
8r	.	.	8r	.	.	8r	.	2.ryy	8B-\L	-mi-	8d\L	-miſ-	2.ryy	2.ryy	2.ryy
8c\L	.	6: 3:	8e-/L	.	.	8a/L	.	.	8A\J	.	8e-\J	.	.	.	.
!	!	!	!	!	!	!	!	!	!	!LO:MO:mod=-sit	!	!	!	!	!
8c\	.	.	8e-/	.	.	8a/	.	.	4A\	-ſsit	4e-\	-sit	.	.	.
8c\	.	.	8e-/	.	.	8a/	.	.	.	.	.	.	.	.	.
8c\	.	.	8e-/	.	.	8a/	.	.	8r	.	8r	.	.	.	.
8c\J	.	.	8e-/J	.	.	8a/J	.	.	8A\	et	8e-\	et	.	.	.
!	!	!	!	!	!	!LO:LB:g=original	!	!	!	!	!LO:LB:g=original	!	!	!	!
=69	=69	=69	=69	=69	=69	=69	=69	=69	=69	=69	=69	=69	=69	=69	=69
8r	.	.	8r	.	.	8r	.	2.ryy	16f\LL	di-	8c\	di-	2.ryy	2.ryy	2.ryy
.	.	.	.	.	.	.	.	.	16e-\JJ	.	.	.	.	.	.
*	*	*	*tremolo	*	*	*	*	*	*	*	*	*	*	*	*
8A\L	.	6: 5:	8e-/L	.	.	8cc\L	.	.	16c\LL	-vi-	8c\	-vi-	.	.	.
.	.	.	.	.	.	.	.	.	16A\JJ	.	.	.	.	.	.
8A\	.	.	8e-/	.	.	8cc\	.	.	4F/	-tes	4c\	-tes	.	.	.
8A\	.	.	8e-/	.	.	8cc\	.	.	.	.	.	.	.	.	.
8A\	.	.	8e-/	.	.	8cc\	.	.	8r	.	8r	.	.	.	.
8A\J	.	.	8e-/J	.	.	8cc\J	.	.	8A\	di-	8c\	di-	.	.	.
!	!	!	!	!	!	!	!	!	!LO:LB:g=original	!	!	!	!	!	!
=70	=70	=70	=70	=70	=70	=70	=70	=70	=70	=70	=70	=70	=70	=70	=70
8r	.	.	8r	.	.	8r	.	2.ryy	8c\L	-miſ-	8e-\L	-miſ-	2.ryy	2.ryy	2.ryy
8B-\L	.	.	8d/L	.	.	8b-\L	.	.	8B-\J	.	8d\J	.	.	.	.
8B-\	.	.	8d/	.	.	8b-\	.	.	4B-\	-sit	4d\	-sit	.	.	.
8B-\	.	.	8d/	.	.	8b-\	.	.	.	.	.	.	.	.	.
8B-\	.	.	8d/	.	.	8b-\	.	.	8r	.	8r	.	.	.	.
!LO:TX:b:t=Verte Cito	!	!	!	!	!	!	!	!	!	!LO:MO:mod=i-	!	!	!	!	!
8B-\J	.	.	8d/J	.	.	8b-\J	.	.	8d\	in-	8b-\	i-	.	.	.
*	*	*	*Xtremolo	*	*	*	*	*	*	*	*	*	*	*	*
!LO:PB:g=original	!	!	!	!	!	!	!	!	!	!	!	!	!	!	!
=71	=71	=71	=71	=71	=71	=71	=71	=71	=71	=71	=71	=71	=71	=71	=71
!	!	!	!	!	!	!	!	!	!	!LO:MO:mod=-na-	!	!	!	!	!
8E-\L	.	6: x	8g/L	.	.	8cc\L	.	2.ryy	16e-\LL	-a-	16cc\LL	-na-	2.ryy	2.ryy	2.ryy
.	.	.	.	.	.	.	.	.	16d\	.	16b-\	.	.	.	.
8E-\	.	.	8g/	.	.	8cc\	.	.	16e-\	.	16cc\	.	.	.	.
.	.	.	.	.	.	.	.	.	16d\JJ	.	16b-\JJ	.	.	.	.
8E-\	.	.	8g/	.	.	8cc\	.	.	16e-\LL	.	16cc\LL	.	.	.	.
.	.	.	.	.	.	.	.	.	16f\	.	16dd\	.	.	.	.
8E-\	.	.	8g/	.	.	8cc\	.	.	16g\	.	16ee-\	.	.	.	.
.	.	.	.	.	.	.	.	.	16e-\JJ	.	16dd\JJ	.	.	.	.
8F\	.	x 3:	8a/	.	.	8cc\	.	.	16c\LL	.	16a\LL	.	.	.	.
.	.	.	.	.	.	.	.	.	16d\	.	16b-\	.	.	.	.
8F\J	.	.	8a/J	.	.	8cc\J	.	.	16e-\	.	16cc\	.	.	.	.
.	.	.	.	.	.	.	.	.	16c\JJ	.	16a\JJ	.	.	.	.
!	!	!	!	!	!	!	!	!	!	!	!LO:LB:g=original	!	!	!	!
=72	=72	=72	=72	=72	=72	=72	=72	=72	=72	=72	=72	=72	=72	=72	=72
8BB-/L	.	.	8b-/L	.	.	8dd\L	.	2.ryy	16d\LL	.	16b-\LL	.	2.ryy	2.ryy	2.ryy
.	.	.	.	.	.	.	.	.	16c\	.	16a\	.	.	.	.
8BB-/	.	.	8b-/	.	.	8dd\	.	.	16d\	.	16b-\	.	.	.	.
.	.	.	.	.	.	.	.	.	16c\JJ	.	16a\JJ	.	.	.	.
8BB-/	.	.	8f/	.	.	8dd\	.	.	16d\LL	.	16b-\LL	.	.	.	.
.	.	.	.	.	.	.	.	.	16c\	.	16a\	.	.	.	.
8BB-/J	.	.	8f/	.	.	8dd\	.	.	16d\	.	16b-\	.	.	.	.
.	.	.	.	.	.	.	.	.	16e-\JJ	.	16cc\JJ	.	.	.	.
8BB-/L	.	.	8f/	.	.	8dd\	.	.	8f\	-nes	8dd\	-nes	.	.	.
16C/L	.	.	8f/J	.	.	8dd\J	.	.	8r	.	8r	.	.	.	.
16D/JJ	.	.	.	.	.	.	.	.	.	.	.	.	.	.	.
=73	=73	=73	=73	=73	=73	=73	=73	=73	=73	=73	=73	=73	=73	=73	=73
*	*	*	*tremolo	*	*	*	*	*	*	*	*	*	*	*	*
8E-\L	.	6: x	8g/L	.	.	8cc\L	.	2.ryy	16f\LL	di-	16dd\LL	di-	2.ryy	2.ryy	2.ryy
.	.	.	.	.	.	.	.	.	16e-\	.	16cc\	.	.	.	.
8E-\	.	.	8g/	.	.	8cc\	.	.	16d\	.	16b-\	.	.	.	.
.	.	.	.	.	.	.	.	.	16e-\JJ	.	16cc\JJ	.	.	.	.
8E-\	.	.	8g/	.	.	8cc\	.	.	16d\LL	.	16b-\LL	.	.	.	.
.	.	.	.	.	.	.	.	.	16e-\JJ	.	16cc\JJ	.	.	.	.
8E-\	.	.	8g/	.	.	8cc\J	.	.	16f\LL	-miſ-	16dd\LL	-miſ-	.	.	.
.	.	.	.	.	.	.	.	.	16e-\JJ	.	16cc\JJ	.	.	.	.
*	*	*	*	*	*	*Xtremolo	*	*	*	*	*	*	*	*	*
!	!	!	!	!	!	!	!	!	!LO:LB:g=original	!	!	!	!	!	!
8En\	.	5 x	8g/	.	.	8b-\L	.	.	16g\LL	-sit	16ee-\LL	-sit	.	.	.
.	.	.	.	.	.	.	.	.	16f\JJ	.	16dd\JJ	.	.	.	.
!	!	!	!	!	!	!	!	!	!	!LO:MO:mod=i-	!	!	!	!	!
8E\J	.	.	8g/J	.	.	8b-\J	.	.	16e-\LL	in-	16b-\LL	i-	.	.	.
!	!	!	!	!	!	!	!	!	!	!	!LO:TX:a:t=vi:note=przeskok o dwa systemy w dół:mod=	!	!	!	!
.	.	.	.	.	.	.	.	.	16d\JJ	.	16b-\JJ	.	.	.	.
*	*	*	*Xtremolo	*	*	*	*	*	*	*	*	*	*	*	*
=74	=74	=74	=74	=74	=74	=74	=74	=74	=74	=74	=74	=74	=74	=74	=74
!	!	!	!	!	!	!	!	!	!	!	!	!	!	!	!
!LO:TX:t=P:problem=mixed beam	!	!	!	!	!	!	!	!	!	!LO:MO:mod=-na-	!LO:TX:a:t=de:mod=	!	!	!	!
8F\L	.	6 4	8.d/L	.	.	8.b-\L	.	2.ryy	8.d\L	-a-	8b-\L	-na-	2.ryy	2.ryy	2.ryy
!	!	!	!	!	!	!	!	!	!	!	!LO:N:vis=32	!	!	!	!
8F\	.	.	.	.	.	.	.	.	.	.	16a\L	.	.	.	.
!	!	!	!	!	!	!	!	!	!	!	!LO:N:vis=32	!	!	!	!
.	.	.	32c/LL	.	.	32a\LL	.	.	32c\LL	.	16b-\JJ	.	.	.	.
.	.	.	32d/JJJ	.	.	32b-\JJJ	.	.	32d\JJJ	.	.	.	.	.	.
8FF/	.	5 3	4c/	.	.	4a/	.	.	4c\	-nes	4a\	-nes	.	.	.
8FF/J	.	.	.	.	.	.	.	.	.	.	.	.	.	.	.
16F\LL	.	.	4r	.	.	4r	.	.	4r	.	4r	.	.	.	.
16E-X\	.	.	.	.	.	.	.	.	.	.	.	.	.	.	.
16D\	.	.	.	.	.	.	.	.	.	.	.	.	.	.	.
16C\JJ	.	.	.	.	.	.	.	.	.	.	.	.	.	.	.
=75	=75	=75	=75	=75	=75	=75	=75	=75	=75	=75	=75	=75	=75	=75	=75
4BB-/	.	.	8B-/L	.	.	8d/L	.	2.ryy	2d\	E-	2.r	.	2.ryy	2.ryy	2.ryy
.	.	.	8d/	.	.	8f/	.	.	.	.	.	.	.	.	.
4BB-/	.	.	8B-/	.	.	8d/	.	.	.	.	.	.	.	.	.
.	.	.	8d/	.	.	8f/	.	.	.	.	.	.	.	.	.
4r	.	.	8B-/	.	.	8d/	.	.	16e-\LL	-ſu-	.	.	.	.	.
.	.	.	.	.	.	.	.	.	16d\JJ	.	.	.	.	.	.
.	.	.	8d/J	.	.	8f/J	.	.	16c\LL	-ri-	.	.	.	.	.
.	.	.	.	.	.	.	.	.	16B-\JJ	.	.	.	.	.	.
!	!	!	!LO:LB:g=original	!	!	!	!	!	!	!	!	!	!	!	!
=76	=76	=76	=76	=76	=76	=76	=76	=76	=76	=76	=76	=76	=76	=76	=76
*	*	*	*tremolo	*	*	*tremolo	*	*	*	*	*	*	*	*	*
4F\	.	.	8A/L	.	.	8c/L	.	2.ryy	8B-\L	-en-	2cc\	im-	2.ryy	2.ryy	2.ryy
.	.	.	8c/	.	.	8e-/	.	.	8A\J	.	.	.	.	.	.
4F\	.	.	8A/	.	.	8c/	.	.	4A\	-teſ	.	.	.	.	.
.	.	.	8c/	.	.	8e-/	.	.	.	.	.	.	.	.	.
4r	.	.	8A/	.	.	8c/	.	.	4r	.	16ee-\LL	-ple-	.	.	.
.	.	.	.	.	.	.	.	.	.	.	16cc\JJ	.	.	.	.
.	.	.	8c/J	.	.	8e-/J	.	.	.	.	16b-\LL	-vit	.	.	.
.	.	.	.	.	.	.	.	.	.	.	16a\JJ	.	.	.	.
!LO:LB:g=original	!	!	!	!	!	!	!	!	!	!	!	!	!	!	!
=77	=77	=77	=77	=77	=77	=77	=77	=77	=77	=77	=77	=77	=77	=77	=77
4BB-/	.	.	8B-/L	.	.	8d/L	.	2.ryy	2d\	E-	8cc\L	bo-	2.ryy	2.ryy	2.ryy
.	.	.	8d/	.	.	8f/	.	.	.	.	8b-\J	.	.	.	.
4BB-/	.	.	8B-/	.	.	8d/	.	.	.	.	4b-\	-nus	.	.	.
.	.	.	8d/	.	.	8f/	.	.	.	.	.	.	.	.	.
4r	.	.	8B-/	.	.	8d/	.	.	16e-\LL	-su-	4r	.	.	.	.
.	.	.	.	.	.	.	.	.	16d\JJ	.	.	.	.	.	.
.	.	.	8d/J	.	.	8f/J	.	.	16c\LL	-ri-	.	.	.	.	.
.	.	.	.	.	.	.	.	.	16B-\JJ	.	.	.	.	.	.
!	!	!	!	!	!	!	!	!	!LO:LB:g=original	!	!	!	!	!	!
=78	=78	=78	=78	=78	=78	=78	=78	=78	=78	=78	=78	=78	=78	=78	=78
4F\	.	.	8A/L	.	.	8c/L	.	2.ryy	8B-\L	-en-	2cc\	im-	2.ryy	2.ryy	2.ryy
.	.	.	8c/	.	.	8e-/	.	.	8A\J	.	.	.	.	.	.
4F\	.	.	8A/	.	.	8c/	.	.	4A\	-tes	.	.	.	.	.
.	.	.	8c/	.	.	8e-/	.	.	.	.	.	.	.	.	.
4r	.	.	8A/	.	.	8c/	.	.	4r	.	16ee-\LL	-ple-	.	.	.
.	.	.	.	.	.	.	.	.	.	.	16cc\JJ	.	.	.	.
.	.	.	8c/J	.	.	8e-/J	.	.	.	.	16b-\LL	-vit	.	.	.
!	!	!	!	!	!	!	!	!	!	!	!LO:TX:a:t=re:mod=	!	!	!	!
.	.	.	.	.	.	.	.	.	.	.	16a\JJ	.	.	.	.
!	!	!	!	!	!	!	!	!	!	!	!LO:LB:g=original	!	!	!	!
=79	=79	=79	=79	=79	=79	=79	=79	=79	=79	=79	=79	=79	=79	=79	=79
!	!	!	!	!	!	!	!	!	!	!	!LO:TX:a:t=tro:mod=	!	!	!	!
4BB-/	.	.	8B-/L	.	.	8d/L	.	2.ryy	2d\	et	8cc\L	bo-	2.ryy	2.ryy	2.ryy
.	.	.	8d/	.	.	8f/	.	.	.	.	8b-\J	-nis	.	.	.
4BB-/	.	.	8B-/	.	.	8d/	.	.	.	.	4.b-\	et	.	.	.
.	.	.	8d/	.	.	8f/	.	.	.	.	.	.	.	.	.
!	!	!	!	!	!	!	!	!	!	!LO:MO:mod=.	!	!	!	!	!
4BB-/	.	.	8B-/	.	.	8d/	.	.	4f\	di-	.	.	.	.	.
.	.	.	8d/J	.	.	8f/J	.	.	.	.	8a-X\	.	.	.	.
*	*	*	*Xtremolo	*	*	*Xtremolo	*	*	*	*	*	*	*	*	*
!	!	!	!	!	!	!LO:LB:g=original	!	!	!	!	!LO:LB:g=original	!	!	!	!
=80	=80	=80	=80	=80	=80	=80	=80	=80	=80	=80	=80	=80	=80	=80	=80
!	!	!	!	!	!	!	!	!	!	!LO:MO:null:mod=di-	!	!	!	!	!
4E-\	.	.	4B-/	.	.	8g/L	.	2.ryy	4.e-\	.	4.g\	di-	2.ryy	2.ryy	2.ryy
.	.	.	.	.	.	8b-/J	.	.	.	.	.	.	.	.	.
4E-\	.	.	4B-/	.	.	4g/	.	.	.	.	.	.	.	.	.
!	!	!	!	!	!	!	!	!	!	!LO:MO:null:mod=-vi-	!	!	!	!	!
.	.	.	.	.	.	.	.	.	24f\	.	24an\	-vi-	.	.	.
!	!	!	!	!	!	!	!	!	!	!LO:MO:mod=-tes	!	!	!	!	!
.	.	.	.	.	.	.	.	.	24g\LL	-vi-	24b-\LL	-tes	.	.	.
.	.	.	.	.	.	.	.	.	24f\JJ	.	24a\JJ	.	.	.	.
!	!	!	!	!	!	!	!	!	!	!LO:MO:mod=di-	!	!	!	!	!
4r	.	.	4r	.	.	4r	.	.	8g\	-tes	8b-\	di-	.	.	.
!	!	!	!	!	!	!	!	!	!	!LO:MO:mod=-mis-	!	!LO:MO:mod=.	!	!	!
.	.	.	.	.	.	.	.	.	16f\LL	di-	16a\LL	-miſ-	.	.	.
.	.	.	.	.	.	.	.	.	16e-\JJ	.	16g\JJ	.	.	.	.
=81	=81	=81	=81	=81	=81	=81	=81	=81	=81	=81	=81	=81	=81	=81	=81
!	!	!	!	!	!	!	!	!	!	!	!	!LO:MO:null:mod=-mis-	!	!	!
4F\	.	6 x	4A/	.	.	8.f/L	.	2.ryy	8.d\L	-miſ-	8.f\L	.	2.ryy	2.ryy	2.ryy
.	.	.	.	.	.	16g/Jk	.	.	16e-\Jk	.	16g\Jk	.	.	.	.
4F#X\	.	5 x	4A/	.	.	16f/LL	.	.	16d\LL	.	16f\LL	.	.	.	.
.	.	.	.	.	.	16e-/	.	.	16c\	.	16e-\	.	.	.	.
.	.	.	.	.	.	16d/	.	.	16B-\	.	16d\	.	.	.	.
.	.	.	.	.	.	16e-/JJ	.	.	16c\JJ	.	16e-\JJ	.	.	.	.
4G\	.	.	4B-/	.	.	8.d/L	.	.	4B-\	-sit	4d\	-sit	.	.	.
.	.	.	.	.	.	16b-/Jk	.	.	.	.	.	.	.	.	.
!	!	!	!	!	!	!	!	!	!LO:LB:g=original	!	!	!	!	!	!
=82	=82	=82	=82	=82	=82	=82	=82	=82	=82	=82	=82	=82	=82	=82	=82
!	!	!	!	!	!	!	!	!	!	!	!	!	!	!	!
!LO:TX:t=P:problem=mixed beam	!	!	!	!	!	!	!	!	!	!	!	!	!	!	!
8E-\L	.	6 x	16c/LL	.	.	8g/L	.	2.ryy	16c\LL	i-	16e-\LL	i-	2.ryy	2.ryy	2.ryy
.	.	.	16e-/	.	.	.	.	.	16e-\	.	16g\	.	.	.	.
8E-\	.	.	16d/	.	.	16f/L	.	.	16d\	.	16f\	.	.	.	.
.	.	.	16c/JJ	.	.	16e-/JJ	.	.	16c\JJ	.	16e-\JJ	.	.	.	.
8Fn\	.	6 4	4B-/	.	.	4d/	.	.	4B-\	-na-	4d\	-na-	.	.	.
8F\	.	.	.	.	.	.	.	.	.	.	.	.	.	.	.
8FF/	.	5 3	4A/	.	.	4c/	.	.	4A\	.	4c\	.	.	.	.
8FF/J	.	.	.	.	.	.	.	.	.	.	.	.	.	.	.
=83	=83	=83	=83	=83	=83	=83	=83	=83	=83	=83	=83	=83	=83	=83	=83
!	!LO:MO:mod=!	!	!	!	!LO:MO:null:mod=!LO&colon;DY&colon;ed=brack	!	!LO:MO:mod=!	!	!	!	!	!	!	!	!
!	!LO:DY:a:t=for	!	!	!	!	!	!LO:DY:b:rj	!	!	!	!	!	!	!	!
4BB-/	f	.	16B-/LL	.	f	16d/LL	f	2.ryy	4B-\	-nes	4d\	-nes	2.ryy	2.ryy	2.ryy
.	.	.	16A/	.	.	16c/	.	.	.	.	.	.	.	.	.
.	.	.	16B-/	.	.	16d/	.	.	.	.	.	.	.	.	.
.	.	.	16c/JJ	.	.	16e-/JJ	.	.	.	.	.	.	.	.	.
8r	.	.	8d/L	.	.	8f/L	.	.	4r	.	4r	.	.	.	.
8BB-/L	.	8 3	8d/J	.	.	8b-/	.	.	.	.	.	.	.	.	.
8C/	.	6 3	8e-/L	.	.	8a/	.	.	4r	.	4r	.	.	.	.
8D/J	.	5 3	8f/J	.	.	8a-X/J	.	.	.	.	.	.	.	.	.
.	.	6 x	.	.	.	.	.	.	.	.	.	.	.	.	.
!	!	!	!	!	!	!	!	!	!	!	!LO:LB:g=original	!	!	!	!
=84	=84	=84	=84	=84	=84	=84	=84	=84	=84	=84	=84	=84	=84	=84	=84
8.E-\L	.	5: 3	4B-/	.	.	8.g/L	.	2.ryy	0.r	.	0.r	.	2.ryy	2.ryy	2.ryy
16D\Jk	.	.	.	.	.	16f#X/Jk	.	.	.	.	.	.	.	.	.
4E-\	.	#3	4B-/	.	.	8g/L	.	.	.	.	.	.	.	.	.
.	.	.	.	.	.	8g/	.	.	.	.	.	.	.	.	.
4r	.	.	4r	.	.	8an/	.	.	.	.	.	.	.	.	.
.	.	.	.	.	.	8b-/J	.	.	.	.	.	.	.	.	.
!LO:LB:g=original	!	!	!LO:LB:g=original	!	!	!	!	!	!	!	!	!	!	!	!
=85	=85	=85	=85	=85	=85	=85	=85	=85	=85-	=85	=85-	=85	=85	=85	=85
*	*	*	*tremolo	*	*	*	*	*	*	*	*	*	*	*	*
4E-\	.	6: x	8g/L	.	.	16cc\LL	.	2.ryy	.	.	.	.	2.ryy	2.ryy	2.ryy
.	.	.	.	.	.	16b-\	.	.	.	.	.	.	.	.	.
.	.	.	8g/	.	.	16cc\	.	.	.	.	.	.	.	.	.
.	.	.	.	.	.	16dd\JJ	.	.	.	.	.	.	.	.	.
4E-\	.	.	8g/	.	.	8.ee-\L	.	.	.	.	.	.	.	.	.
.	.	.	8g/	.	.	.	.	.	.	.	.	.	.	.	.
.	.	.	.	.	.	16cc\Jk	.	.	.	.	.	.	.	.	.
!LO:SIC:s=4E-	!	!	!	!	!	!	!	!	!	!	!	!	!	!	!
4E#\	.	5 x	8g/	.	.	16ee-\LL	.	.	.	.	.	.	.	.	.
.	.	.	.	.	.	16dd\	.	.	.	.	.	.	.	.	.
.	.	.	8g/J	.	.	16cc\	.	.	.	.	.	.	.	.	.
!	!	!	!	!	!	!LO:TX:b:t=Verte Subitto:mod=	!	!	!	!	!	!	!	!	!
.	.	.	.	.	.	16b-\JJ	.	.	.	.	.	.	.	.	.
*	*	*	*Xtremolo	*	*	*	*	*	*	*	*	*	*	*	*
!	!	!	!	!	!	!LO:PB:g=original	!	!	!	!	!	!	!	!	!
=86	=86	=86	=86	=86	=86	=86	=86	=86	=86-	=86	=86-	=86	=86	=86	=86
4F\	.	6 4	8.d/L	.	.	8.b-/L	.	2.ryy	.	.	.	.	2.ryy	2.ryy	2.ryy
.	.	.	32c/LL	.	.	32a/LL	.	.	.	.	.	.	.	.	.
.	.	.	32d/JJJ	.	.	32b-/JJJ	.	.	.	.	.	.	.	.	.
4FF/	.	5 3	4c/	.	.	8a/L	.	.	.	.	.	.	.	.	.
.	.	.	.	.	.	16f/L	.	.	.	.	.	.	.	.	.
.	.	.	.	.	.	16g/JJ	.	.	.	.	.	.	.	.	.
4r	.	.	4r	.	.	16a\LL	.	.	.	.	.	.	.	.	.
.	.	.	.	.	.	16b-\	.	.	.	.	.	.	.	.	.
.	.	.	.	.	.	16cc\	.	.	.	.	.	.	.	.	.
.	.	.	.	.	.	16dd\JJ	.	.	.	.	.	.	.	.	.
=87	=87	=87	=87	=87	=87	=87	=87	=87	=87-	=87	=87-	=87	=87	=87	=87
4r	.	.	4r	.	.	16ee-/LL	.	2.ryy	.	.	.	.	2.ryy	2.ryy	2.ryy
.	.	.	.	.	.	16cc/	.	.	.	.	.	.	.	.	.
.	.	.	.	.	.	16a/	.	.	.	.	.	.	.	.	.
.	.	.	.	.	.	16f/JJ	.	.	.	.	.	.	.	.	.
4A\	.	6 5	4c/	.	.	16e-/LL	.	.	.	.	.	.	.	.	.
.	.	.	.	.	.	16f/	.	.	.	.	.	.	.	.	.
.	.	.	.	.	.	16c/	.	.	.	.	.	.	.	.	.
.	.	.	.	.	.	16f/JJ	.	.	.	.	.	.	.	.	.
4B-\	.	.	4d/	.	.	16d/LL	.	.	.	.	.	.	.	.	.
.	.	.	.	.	.	16f/	.	.	.	.	.	.	.	.	.
.	.	.	.	.	.	16b-/	.	.	.	.	.	.	.	.	.
.	.	.	.	.	.	16dd/JJ	.	.	.	.	.	.	.	.	.
=88	=88	=88	=88	=88	=88	=88	=88	=88	=88-	=88	=88-	=88	=88	=88	=88
4r	.	.	4r	.	.	16ee-/LL	.	2.ryy	1.r	.	1.r	.	2.ryy	2.ryy	2.ryy
.	.	.	.	.	.	16cc/	.	.	.	.	.	.	.	.	.
.	.	.	.	.	.	16a/	.	.	.	.	.	.	.	.	.
.	.	.	.	.	.	16f/JJ	.	.	.	.	.	.	.	.	.
4A\	.	6 5	4c/	.	.	16e-/LL	.	.	.	.	.	.	.	.	.
.	.	.	.	.	.	16f/	.	.	.	.	.	.	.	.	.
.	.	.	.	.	.	16c/	.	.	.	.	.	.	.	.	.
.	.	.	.	.	.	16f/JJ	.	.	.	.	.	.	.	.	.
4B-\	.	.	4d/	.	.	16d/LL	.	.	.	.	.	.	.	.	.
.	.	.	.	.	.	16f/	.	.	.	.	.	.	.	.	.
.	.	.	.	.	.	16b-/	.	.	.	.	.	.	.	.	.
.	.	.	.	.	.	16dd/JJ	.	.	.	.	.	.	.	.	.
=89	=89	=89	=89	=89	=89	=89	=89	=89	=89-	=89	=89-	=89	=89	=89	=89
4r	.	.	4r	.	.	16dd\LL	.	2.ryy	.	.	.	.	2.ryy	2.ryy	2.ryy
.	.	.	.	.	.	16cc\	.	.	.	.	.	.	.	.	.
.	.	.	.	.	.	16b-\	.	.	.	.	.	.	.	.	.
.	.	.	.	.	.	16cc\JJ	.	.	.	.	.	.	.	.	.
4E-\	.	6 x	4g/	.	.	8.ee-\L	.	.	.	.	.	.	.	.	.
.	.	.	.	.	.	16cc\Jk	.	.	.	.	.	.	.	.	.
4F\	.	n x	4c/	.	.	16cc\LL	.	.	.	.	.	.	.	.	.
.	.	.	.	.	.	16b-\	.	.	.	.	.	.	.	.	.
.	.	.	.	.	.	16b-\	.	.	.	.	.	.	.	.	.
.	.	.	.	.	.	16a\JJ	.	.	.	.	.	.	.	.	.
=90	=90	=90	=90	=90	=90	=90	=90	=90	=90-	=90	=90-	=90	=90	=90	=90
4B-\	.	.	8.d/L	.	.	8.b-\L	.	2.ryy	2.r	.	2.r	.	2.ryy	2.ryy	2.ryy
.	.	.	16f/Jk	.	.	16dd\Jk	.	.	.	.	.	.	.	.	.
4BB-/	.	.	4d/	.	.	4b-\	.	.	.	.	.	.	.	.	.
4r	.	.	4r	.	.	4r	.	.	.	.	.	.	.	.	.
!LO:MO:mod===	!	!	!LO:MO:mod===	!	!	!LO:MO:mod===	!	!	!	!	!LO:MO:mod===	!	!	!	!
==;>	==	==	==;>	==;>	==	==;>	==	==	==	==	==;>	==	==	==	==
*-	*-	*-	*-	*-	*-	*-	*-	*-	*-	*-	*-	*-	*-	*-	*-
!!!system-decoration: [(g1)][(g2)][(g3)]g4
!!!RDF**kern: > = above
!!!RDF**kern: < = below
!!!filter-modern: sic -sq | autostem -r | tie -s |humtr -p | shed -e "s/TX(.*):t=P:/tx$1:t=P:/LG" | shed -e "s/LO:DY:(a|b|rj)/LO:dy:$1/L" | shed -e "s/LO:DY:t=/LO:dy:t=/L" | shed -e "s/^(\d+[\/\\]right)/$1yy/I; s/^(\d+[\/\\]left)/$1yy/I" | shed -e "s/-//B" | modori -m |
!!!ENC: Andrzej Gręziak
!!!END: 2021-11-29
!!!EED: Jędrzej Mróz
!!!EEV: 2021-12-13
!!!ENC-modern: Leszek Kubiak
!!!END-modern: 2022-07-26
